;FLAVOR:Marlin
;TIME:9827
;Filament used: 7.55012m
;Layer height: 0.2
;MINX:30.249
;MINY:40.17
;MINZ:0.2
;MAXX:189.552
;MAXY:180.153
;MAXZ:11.8
;Generated with Cura_SteamEngine 5.4.0
M82 ;absolute extrusion mode
; Ender 3 S1 Pro Start G-code
; M413 S0 ; Disable power loss recovery
G92 E0 ; Reset Extruder

; Prep surfaces before auto home for better accuracy
M140 S60
M104 S200

G28 O ; Home all untrusted axes
G1 Z10.0 F3000 ; Move Z Axis up little to prevent scratching of Heat Bed
G1 X0 Y0

M190 S60
M109 S200

G1 X0.1 Y20 Z0.3 F5000.0 ; Move to start position
G1 X0.1 Y200.0 Z0.3 F1500.0 E15 ; Draw the first line
G1 X0.4 Y200.0 Z0.3 F5000.0 ; Move to side a little
G1 X0.4 Y20 Z0.3 F1500.0 E30 ; Draw the second line
G92 E0 ; Reset Extruder
G1 Z2.0 F3000 ; Move Z Axis up little to prevent scratching of Heat Bed
G1 X5 Y20 Z0.3 F5000.0 ; Move over to prevent blob squish

G92 E0
G92 E0
G1 F2400 E-0.8
;LAYER_COUNT:59
;LAYER:0
M107
M204 S2000
G0 F7500 X37.426 Y44.042 Z0.2
M204 S500
;TYPE:SKIRT
G1 F2400 E0
G1 F1500 X38.127 Y43.463 E0.03024
G1 X38.906 Y42.879 E0.06262
G1 X39.706 Y42.382 E0.09395
G1 X40.739 Y41.867 E0.13234
G1 X41.931 Y41.357 E0.17546
G1 X42.583 Y41.096 E0.19882
G1 X43.469 Y40.786 E0.23004
G1 X44.452 Y40.54 E0.26374
G1 X45.501 Y40.377 E0.29905
G1 X46.47 Y40.278 E0.33145
G1 X47.526 Y40.193 E0.36668
G1 X48.913 Y40.171 E0.41282
G1 X51.485 Y40.3 E0.49847
G1 X54.964 Y40.366 E0.61421
G1 X165.152 Y40.365 E4.27907
G1 X167.723 Y40.328 E4.3646
G1 X171.139 Y40.17 E4.47833
G1 X172.529 Y40.194 E4.52457
G1 X173.773 Y40.297 E4.56609
G1 X174.521 Y40.377 E4.59111
G1 X175.481 Y40.525 E4.62342
G1 X176.359 Y40.738 E4.65347
G1 X177.127 Y40.988 E4.68033
G1 X177.824 Y41.255 E4.70515
G1 X179.151 Y41.812 E4.75302
G1 X180 Y42.215 E4.78428
G1 X180.845 Y42.712 E4.81688
G1 X181.911 Y43.496 E4.8609
G1 X182.98 Y44.388 E4.9072
G1 X184.755 Y45.941 E4.98565
G1 X185.458 Y46.617 E5.01808
G1 X186.096 Y47.352 E5.05046
G1 X186.669 Y48.145 E5.083
G1 X187.206 Y49.049 E5.11797
G1 X187.849 Y50.268 E5.16381
G1 X188.283 Y51.131 E5.19594
G1 X188.602 Y51.833 E5.22158
G1 X188.741 Y52.173 E5.2338
G1 X189.07 Y53.091 E5.26623
G1 X189.314 Y54.032 E5.29857
G1 X189.477 Y54.993 E5.33099
G1 X189.552 Y55.964 E5.36338
G1 X189.543 Y56.921 E5.39521
G1 X189.503 Y57.443 E5.41262
G1 X189.384 Y58.618 E5.4519
G1 X189.25 Y59.653 E5.48661
G1 X189.078 Y60.608 E5.51889
G1 X188.858 Y61.436 E5.54738
G1 X188.375 Y62.781 E5.59491
G1 X188.096 Y63.421 E5.61814
G1 X187.519 Y64.624 E5.66251
G1 X187.032 Y65.509 E5.69611
G1 X186.228 Y66.663 E5.74289
G1 X185.469 Y67.613 E5.78333
G1 X183.889 Y69.645 E5.86894
G1 X182.405 Y71.669 E5.95242
G1 X180.98 Y73.737 E6.03595
G1 X179.622 Y75.829 E6.1189
G1 X177.882 Y78.709 E6.23082
G1 X129.767 Y161.687 E9.42109
G1 X128.455 Y164.026 E9.51029
G1 X127.323 Y166.184 E9.59134
G1 X125.453 Y170.09 E9.73537
G1 X125.221 Y170.545 E9.75236
G1 X124.897 Y171.145 E9.77504
G1 X124.285 Y172.231 E9.8165
G1 X123.769 Y173.057 E9.84889
G1 X123.226 Y173.778 E9.87891
G1 X122.644 Y174.433 E9.90806
G1 X121.633 Y175.475 E9.95634
G1 X121.1 Y175.99 E9.981
G1 X120.392 Y176.615 E10.01241
G1 X119.359 Y177.357 E10.05471
G1 X118.849 Y177.679 E10.07477
G1 X118.202 Y178.054 E10.09964
G1 X117.312 Y178.527 E10.13316
G1 X116.411 Y178.98 E10.16671
G1 X115.521 Y179.376 E10.19911
G1 X114.6 Y179.691 E10.23148
G1 X113.654 Y179.924 E10.26388
G1 X112.686 Y180.073 E10.29646
G1 X111.607 Y180.138 E10.33241
G1 X110.549 Y180.148 E10.3676
G1 X109.665 Y180.144 E10.39701
G1 X108.704 Y180.153 E10.42897
G1 X107.731 Y180.115 E10.46136
G1 X106.765 Y179.992 E10.49375
G1 X105.813 Y179.784 E10.52616
G1 X104.951 Y179.516 E10.55618
G1 X103.787 Y179.025 E10.5982
G1 X102.823 Y178.551 E10.63393
G1 X101.768 Y177.99 E10.67367
G1 X101.105 Y177.602 E10.69922
G1 X100.667 Y177.322 E10.71651
G1 X99.86 Y176.753 E10.74935
G1 X98.884 Y175.901 E10.79244
G1 X97.977 Y175.004 E10.83487
G1 X97.486 Y174.498 E10.85832
G1 X96.886 Y173.823 E10.88836
G1 X96.266 Y172.987 E10.92298
G1 X95.839 Y172.299 E10.94991
G1 X94.988 Y170.799 E11.00727
G1 X94.606 Y170.06 E11.03494
G1 X93.348 Y167.377 E11.1335
G1 X92.219 Y165.143 E11.21675
G1 X91.024 Y162.936 E11.30022
G1 X90.311 Y161.687 E11.34806
G1 X42.304 Y79.007 E14.52795
G1 X40.985 Y76.806 E14.6133
G1 X39.633 Y74.692 E14.69676
G1 X38.198 Y72.579 E14.78171
G1 X36.77 Y70.599 E14.86291
G1 X35.216 Y68.57 E14.94791
G1 X34.46 Y67.648 E14.98757
G1 X33.556 Y66.511 E15.03588
G1 X33.081 Y65.881 E15.06212
G1 X32.539 Y65.07 E15.09457
G1 X32.072 Y64.215 E15.12697
G1 X31.69 Y63.422 E15.15624
G1 X31.435 Y62.854 E15.17695
G1 X31.079 Y61.949 E15.2093
G1 X30.8 Y61.007 E15.24198
G1 X30.591 Y59.93 E15.27846
G1 X30.425 Y58.723 E15.31899
G1 X30.311 Y57.68 E15.35388
G1 X30.249 Y56.707 E15.38631
G1 X30.272 Y55.773 E15.41739
G1 X30.347 Y55.024 E15.44242
G1 X30.418 Y54.501 E15.45998
G1 X30.594 Y53.543 E15.49237
G1 X30.855 Y52.606 E15.52473
G1 X31.198 Y51.693 E15.55716
G1 X31.618 Y50.818 E15.58945
G1 X32.065 Y50.058 E15.61877
G1 X33.284 Y48.167 E15.6936
G1 X33.849 Y47.374 E15.72599
G1 X34.489 Y46.627 E15.7587
G1 X35.363 Y45.792 E15.79891
G1 X36.429 Y44.882 E15.84552
G1 X36.558 Y44.782 E15.85095
G1 X37.426 Y44.042 E15.88889
M204 S2000
G0 F7500 X37.681 Y44.35
M204 S500
G1 F1500 X38.367 Y43.783 E15.91849
G1 X39.117 Y43.219 E15.9497
G1 X39.917 Y42.722 E15.98103
G1 X40.897 Y42.235 E16.01743
G1 X42.08 Y41.728 E16.06023
G1 X42.715 Y41.474 E16.08298
G1 X43.601 Y41.164 E16.1142
G1 X44.513 Y40.935 E16.14548
G1 X45.542 Y40.775 E16.18011
G1 X46.502 Y40.677 E16.21221
G1 X47.558 Y40.592 E16.24744
G1 X48.919 Y40.571 E16.29272
G1 X51.477 Y40.7 E16.3779
G1 X54.956 Y40.766 E16.49364
G1 X165.158 Y40.765 E20.15897
G1 X167.741 Y40.728 E20.24489
G1 X171.157 Y40.57 E20.35863
G1 X172.496 Y40.593 E20.40317
G1 X173.731 Y40.695 E20.44439
G1 X174.46 Y40.772 E20.46877
G1 X175.387 Y40.914 E20.49996
G1 X176.265 Y41.127 E20.53001
G1 X176.984 Y41.362 E20.55517
G1 X177.669 Y41.624 E20.57956
G1 X178.98 Y42.174 E20.62685
G1 X179.797 Y42.56 E20.6569
G1 X180.642 Y43.057 E20.68951
G1 X181.655 Y43.803 E20.73135
G1 X182.717 Y44.689 E20.77735
G1 X184.478 Y46.23 E20.85518
G1 X185.156 Y46.88 E20.88642
G1 X185.772 Y47.587 E20.91761
G1 X186.325 Y48.349 E20.94892
G1 X186.852 Y49.236 E20.98324
G1 X187.492 Y50.448 E21.02882
G1 X187.919 Y51.297 E21.06043
G1 X188.232 Y51.985 E21.08557
G1 X188.365 Y52.309 E21.09722
G1 X188.683 Y53.192 E21.12844
G1 X188.92 Y54.099 E21.15962
G1 X189.078 Y55.025 E21.19086
G1 X189.152 Y55.961 E21.22209
G1 X189.144 Y56.891 E21.25302
G1 X189.105 Y57.403 E21.2701
G1 X188.987 Y58.567 E21.30901
G1 X188.856 Y59.583 E21.34309
G1 X188.691 Y60.505 E21.37424
G1 X188.471 Y61.333 E21.40273
G1 X188.008 Y62.621 E21.44826
G1 X187.735 Y63.248 E21.471
G1 X187.168 Y64.432 E21.51466
G1 X186.704 Y65.28 E21.54681
G1 X185.915 Y66.413 E21.59274
G1 X185.156 Y67.363 E21.63318
G1 X183.573 Y69.399 E21.71896
G1 X182.082 Y71.433 E21.80284
G1 X180.644 Y73.519 E21.88711
G1 X179.286 Y75.611 E21.97006
G1 X177.536 Y78.508 E22.08263
G1 X129.421 Y161.486 E25.2729
G1 X128.106 Y163.83 E25.36229
G1 X126.962 Y166.011 E25.44421
G1 X125.092 Y169.917 E25.58824
G1 X124.869 Y170.355 E25.60459
G1 X124.548 Y170.949 E25.62705
G1 X123.946 Y172.019 E25.66788
G1 X123.449 Y172.816 E25.69912
G1 X122.906 Y173.537 E25.72914
G1 X122.357 Y174.154 E25.75661
G1 X121.355 Y175.187 E25.80447
G1 X120.835 Y175.69 E25.82854
G1 X120.127 Y176.315 E25.85995
G1 X119.145 Y177.019 E25.90014
G1 X118.648 Y177.333 E25.91969
G1 X118.014 Y177.701 E25.94407
G1 X117.132 Y178.17 E25.9773
G1 X116.248 Y178.615 E26.01021
G1 X115.391 Y178.998 E26.04143
G1 X114.504 Y179.303 E26.07263
G1 X113.592 Y179.529 E26.10388
G1 X112.662 Y179.674 E26.13519
G1 X111.603 Y179.738 E26.17047
G1 X110.551 Y179.748 E26.20547
G1 X109.663 Y179.744 E26.235
G1 X108.719 Y179.753 E26.2664
G1 X107.781 Y179.718 E26.29762
G1 X106.85 Y179.601 E26.32883
G1 X105.932 Y179.402 E26.36007
G1 X105.07 Y179.134 E26.39009
G1 X103.963 Y178.666 E26.43007
G1 X103.011 Y178.198 E26.46535
G1 X101.97 Y177.645 E26.50456
G1 X101.32 Y177.265 E26.5296
G1 X100.897 Y176.995 E26.54629
G1 X100.123 Y176.451 E26.57776
G1 X99.165 Y175.616 E26.62002
G1 X98.264 Y174.726 E26.66215
G1 X97.785 Y174.232 E26.68503
G1 X97.185 Y173.557 E26.71507
G1 X96.606 Y172.776 E26.74741
G1 X96.187 Y172.101 E26.77383
G1 X95.343 Y170.615 E26.83067
G1 X94.968 Y169.89 E26.85782
G1 X93.71 Y167.207 E26.95638
G1 X92.576 Y164.963 E27.04
G1 X91.376 Y162.746 E27.12385
G1 X90.657 Y161.486 E27.1721
G1 X42.65 Y78.806 E30.35199
G1 X41.328 Y76.6 E30.43753
G1 X39.964 Y74.467 E30.52174
G1 X38.529 Y72.354 E30.60669
G1 X37.088 Y70.356 E30.68863
G1 X35.534 Y68.327 E30.77363
G1 X34.773 Y67.399 E30.81355
G1 X33.875 Y66.27 E30.86153
G1 X33.413 Y65.658 E30.88703
G1 X32.89 Y64.878 E30.91827
G1 X32.432 Y64.041 E30.95
G1 X32.055 Y63.258 E30.97891
G1 X31.807 Y62.707 E30.999
G1 X31.462 Y61.835 E31.03019
G1 X31.193 Y60.931 E31.06156
G1 X30.984 Y59.854 E31.09805
G1 X30.823 Y58.679 E31.1375
G1 X30.71 Y57.654 E31.1718
G1 X30.649 Y56.717 E31.20303
G1 X30.672 Y55.783 E31.2341
G1 X30.743 Y55.077 E31.2577
G1 X30.811 Y54.573 E31.27462
G1 X30.98 Y53.65 E31.30583
G1 X31.23 Y52.746 E31.33702
G1 X31.559 Y51.866 E31.36827
G1 X31.963 Y51.021 E31.39942
G1 X32.401 Y50.275 E31.42819
G1 X33.61 Y48.399 E31.50243
G1 X34.153 Y47.634 E31.53363
G1 X34.766 Y46.916 E31.56503
G1 X35.623 Y46.096 E31.60448
G1 X36.674 Y45.198 E31.65046
G1 X36.813 Y45.09 E31.65631
G1 X37.681 Y44.35 E31.69425
M204 S2000
G0 F7500 X37.936 Y44.658
M204 S500
G1 F1500 X38.608 Y44.102 E31.72326
G1 X39.329 Y43.558 E31.7533
G1 X40.095 Y43.08 E31.78333
G1 X41.055 Y42.603 E31.81898
G1 X42.229 Y42.099 E31.86148
G1 X42.847 Y41.851 E31.88362
G1 X43.699 Y41.552 E31.91366
G1 X44.575 Y41.33 E31.94371
G1 X45.583 Y41.173 E31.97764
G1 X46.534 Y41.076 E32.00944
G1 X47.59 Y40.991 E32.04468
G1 X48.925 Y40.971 E32.08908
G1 X51.469 Y41.1 E32.1738
G1 X54.948 Y41.166 E32.28954
G1 X165.164 Y41.165 E35.95534
G1 X167.759 Y41.128 E36.04166
G1 X171.175 Y40.97 E36.15539
G1 X172.463 Y40.992 E36.19824
G1 X173.689 Y41.093 E36.23915
G1 X174.4 Y41.168 E36.26293
G1 X175.293 Y41.303 E36.29297
G1 X176.171 Y41.516 E36.32302
G1 X176.841 Y41.735 E36.34647
G1 X177.514 Y41.993 E36.37044
G1 X178.809 Y42.536 E36.41714
G1 X179.626 Y42.922 E36.4472
G1 X180.405 Y43.379 E36.47724
G1 X181.399 Y44.11 E36.51827
G1 X182.454 Y44.99 E36.56397
G1 X184.202 Y46.519 E36.64121
G1 X184.855 Y47.143 E36.67125
G1 X185.449 Y47.823 E36.70128
G1 X185.981 Y48.553 E36.73133
G1 X186.498 Y49.423 E36.76499
G1 X187.135 Y50.628 E36.81032
G1 X187.555 Y51.463 E36.84141
G1 X187.862 Y52.137 E36.86604
G1 X187.989 Y52.445 E36.87712
G1 X188.296 Y53.294 E36.90715
G1 X188.526 Y54.167 E36.93717
G1 X188.679 Y55.057 E36.96721
G1 X188.752 Y55.958 E36.99728
G1 X188.745 Y56.861 E37.02731
G1 X188.707 Y57.363 E37.04406
G1 X188.59 Y58.516 E37.0826
G1 X188.462 Y59.513 E37.11603
G1 X188.304 Y60.402 E37.14607
G1 X188.084 Y61.23 E37.17456
G1 X187.641 Y62.461 E37.21807
G1 X187.374 Y63.075 E37.24034
G1 X186.807 Y64.259 E37.28401
G1 X186.376 Y65.052 E37.31402
G1 X185.603 Y66.163 E37.35904
G1 X184.84 Y67.117 E37.39967
G1 X183.257 Y69.153 E37.48545
G1 X181.759 Y71.197 E37.56974
G1 X180.308 Y73.301 E37.65474
G1 X178.95 Y75.393 E37.7377
G1 X177.19 Y78.307 E37.85092
G1 X129.075 Y161.285 E41.04119
G1 X127.757 Y163.634 E41.13078
G1 X126.601 Y165.838 E41.21356
G1 X124.735 Y169.736 E41.35729
G1 X124.517 Y170.165 E41.3733
G1 X124.199 Y170.753 E41.39553
G1 X123.606 Y171.808 E41.43578
G1 X123.129 Y172.575 E41.46583
G1 X122.586 Y173.296 E41.49585
G1 X122.07 Y173.876 E41.52167
G1 X121.077 Y174.9 E41.56911
G1 X120.57 Y175.391 E41.59258
G1 X119.894 Y175.99 E41.62262
G1 X118.912 Y176.694 E41.66281
G1 X118.447 Y176.987 E41.68109
G1 X117.826 Y177.348 E41.70498
G1 X116.952 Y177.813 E41.73791
G1 X116.084 Y178.25 E41.77023
G1 X115.26 Y178.62 E41.80028
G1 X114.407 Y178.915 E41.83029
G1 X113.53 Y179.134 E41.86036
G1 X112.638 Y179.275 E41.8904
G1 X111.599 Y179.338 E41.92502
G1 X110.553 Y179.348 E41.95981
G1 X109.661 Y179.344 E41.98948
G1 X108.733 Y179.353 E42.02034
G1 X107.83 Y179.321 E42.0504
G1 X106.934 Y179.21 E42.08043
G1 X106.051 Y179.02 E42.11047
G1 X105.189 Y178.752 E42.14049
G1 X104.139 Y178.307 E42.17842
G1 X103.199 Y177.845 E42.21326
G1 X102.172 Y177.3 E42.25193
G1 X101.535 Y176.927 E42.27648
G1 X101.126 Y176.667 E42.2926
G1 X100.386 Y176.149 E42.32264
G1 X99.446 Y175.331 E42.36409
G1 X98.551 Y174.447 E42.40593
G1 X98.084 Y173.966 E42.42822
G1 X97.484 Y173.291 E42.45826
G1 X96.946 Y172.565 E42.48832
G1 X96.535 Y171.903 E42.51423
G1 X95.698 Y170.431 E42.57055
G1 X95.33 Y169.72 E42.59718
G1 X94.072 Y167.037 E42.69574
G1 X92.933 Y164.783 E42.77974
G1 X91.728 Y162.556 E42.86395
G1 X91.003 Y161.285 E42.91262
G1 X42.996 Y78.605 E46.09252
G1 X41.671 Y76.394 E46.17825
G1 X40.295 Y74.242 E46.26321
G1 X38.86 Y72.129 E46.34816
G1 X37.406 Y70.113 E46.43083
G1 X35.852 Y68.084 E46.51583
G1 X35.086 Y67.15 E46.55601
G1 X34.194 Y66.029 E46.60366
G1 X33.745 Y65.435 E46.62842
G1 X33.241 Y64.686 E46.65845
G1 X32.783 Y63.849 E46.69019
G1 X32.42 Y63.094 E46.71805
G1 X32.179 Y62.559 E46.73756
G1 X31.845 Y61.72 E46.7676
G1 X31.586 Y60.855 E46.79763
G1 X31.377 Y59.778 E46.83412
G1 X31.221 Y58.635 E46.87249
G1 X31.109 Y57.627 E46.90622
G1 X31.049 Y56.726 E46.93626
G1 X31.07 Y55.823 E46.9663
G1 X31.139 Y55.131 E46.98943
G1 X31.205 Y54.644 E47.00577
G1 X31.366 Y53.756 E47.03579
G1 X31.605 Y52.885 E47.06583
G1 X31.92 Y52.038 E47.09589
G1 X32.308 Y51.223 E47.12591
G1 X32.737 Y50.492 E47.1541
G1 X33.936 Y48.63 E47.22776
G1 X34.458 Y47.893 E47.2578
G1 X35.043 Y47.205 E47.28784
G1 X35.883 Y46.4 E47.32653
G1 X36.919 Y45.514 E47.37187
G1 X37.058 Y45.406 E47.37773
G1 X37.936 Y44.658 E47.41609
M204 S2000
G1 F2400 E46.61609
G0 F7500 X45.209 Y52.126
M204 S500
G1 F2400 E47.41609
G1 F1500 X46.69 Y51.503 E47.46953
G1 X48.244 Y51.364 E47.52142
G1 X48.249 Y51.379 E47.52195
G1 X48.361 Y51.454 E47.52643
G1 X48.532 Y51.497 E47.53229
G1 X48.559 Y51.502 E47.53321
G1 X49.011 Y51.552 E47.54833
G1 X49.025 Y51.553 E47.5488
G1 X49.343 Y51.566 E47.55939
G1 X49.351 Y51.566 E47.55965
G1 X170.718 Y51.565 E51.59633
G1 X170.732 Y51.565 E51.5968
G1 X171.199 Y51.533 E51.61237
G1 X171.223 Y51.529 E51.61318
G1 X171.665 Y51.443 E51.62816
G1 X171.774 Y51.382 E51.63231
G1 X171.784 Y51.362 E51.63305
G1 X173.287 Y51.498 E51.68325
G1 X174.771 Y52.108 E51.73661
G1 X176.201 Y53.325 E51.79907
G1 X176.198 Y53.334 E51.79938
G1 X176.257 Y53.482 E51.80468
G1 X176.608 Y53.832 E51.82117
G1 X176.627 Y53.848 E51.82199
G1 X176.856 Y54.025 E51.83162
G1 X176.869 Y54.034 E51.83215
G1 X177.134 Y54.207 E51.84267
G1 X177.142 Y54.213 E51.84301
G1 X177.321 Y54.317 E51.84989
G1 X177.559 Y55.035 E51.87505
G1 X177.567 Y55.055 E51.87577
G1 X177.681 Y55.306 E51.88494
G1 X177.693 Y55.328 E51.88577
G1 X177.857 Y55.595 E51.89619
G1 X177.869 Y55.613 E51.89691
G1 X178.088 Y55.893 E51.90873
G1 X178.098 Y55.904 E51.90923
G1 X178.237 Y56.057 E51.9161
G1 X178.342 Y56.306 E51.92509
G1 X178.358 Y56.49 E51.93123
G1 X178.164 Y58.136 E51.98636
G1 X178.107 Y58.332 E51.99315
G1 X177.75 Y59.122 E52.02198
G1 X177.744 Y59.136 E52.02249
G1 X177.721 Y59.2 E52.02475
G1 X177.48 Y59.682 E52.04267
G1 X177.297 Y59.897 E52.05206
G1 X177.11 Y60.01 E52.05933
G1 X176.804 Y60.06 E52.06964
G1 X176.787 Y60.063 E52.07022
G1 X176.435 Y60.152 E52.08229
G1 X176.408 Y60.161 E52.08324
G1 X176.079 Y60.296 E52.09507
G1 X176.05 Y60.311 E52.09615
G1 X175.715 Y60.519 E52.10927
G1 X175.688 Y60.538 E52.11037
G1 X175.441 Y60.754 E52.12128
G1 X175.418 Y60.778 E52.12239
G1 X175.127 Y61.134 E52.13768
G1 X175.109 Y61.161 E52.13876
G1 X115.703 Y163.614 E56.07776
G1 X115.699 Y163.621 E56.07803
G1 X115.574 Y163.858 E56.08694
G1 X115.568 Y163.871 E56.08742
G1 X115.466 Y164.104 E56.09588
G1 X115.459 Y164.122 E56.09652
G1 X115.355 Y164.44 E56.10765
G1 X115.349 Y164.462 E56.10841
G1 X115.28 Y164.804 E56.12001
G1 X115.276 Y164.835 E56.12105
G1 X115.258 Y165.221 E56.1339
G1 X115.303 Y165.355 E56.1386
G1 X114.78 Y166.283 E56.17403
G1 X114.539 Y166.734 E56.19104
G1 X113.354 Y167.915 E56.24669
G1 X112.911 Y168.194 E56.2641
G1 X111.512 Y168.917 E56.31648
G1 X111.485 Y168.898 E56.31757
G1 X111.414 Y168.868 E56.32014
