;FLAVOR:Marlin
;TIME:165
;Filament used: 0.0815133m
;Layer height: 0.2
;MINX:74.537
;MINY:91.95
;MINZ:0.2
;MAXX:145.448
;MAXY:128.039
;MAXZ:2
;Generated with Cura_SteamEngine 5.4.0
M82 ;absolute extrusion mode
; Ender 3 S1 Pro Start G-code
; M413 S0 ; Disable power loss recovery
G92 E0 ; Reset Extruder

; Prep surfaces before auto home for better accuracy
M140 S60
M104 S200

G28 O ; Home all untrusted axes
G1 Z10.0 F3000 ; Move Z Axis up little to prevent scratching of Heat Bed
G1 X0 Y0

M190 S60
M109 S200

G1 X0.1 Y20 Z0.3 F5000.0 ; Move to start position
G1 X0.1 Y200.0 Z0.3 F1500.0 E15 ; Draw the first line
G1 X0.4 Y200.0 Z0.3 F5000.0 ; Move to side a little
G1 X0.4 Y20 Z0.3 F1500.0 E30 ; Draw the second line
G92 E0 ; Reset Extruder
G1 Z2.0 F3000 ; Move Z Axis up little to prevent scratching of Heat Bed
G1 X5 Y20 Z0.3 F5000.0 ; Move over to prevent blob squish

G92 E0
G92 E0
G1 F2400 E-0.8
;LAYER_COUNT:10
;LAYER:0
M107
M204 S2000
G0 F7500 X79.574 Y95.098 Z0.2
M204 S500
;TYPE:SKIRT
G1 F2400 E0
G1 F1500 X80.276 Y94.53 E0.03003
G1 X81.067 Y93.993 E0.06183
G1 X81.481 Y93.739 E0.07799
G1 X82.333 Y93.269 E0.11035
G1 X83.194 Y92.887 E0.14168
G1 X84.295 Y92.518 E0.1803
G1 X84.957 Y92.337 E0.20313
G1 X85.906 Y92.124 E0.23548
G1 X86.871 Y91.993 E0.26787
G1 X87.773 Y91.95 E0.2979
G1 X88.505 Y91.97 E0.32226
G1 X90.946 Y92.116 E0.40359
G1 X93.497 Y92.198 E0.48848
G1 X95.958 Y92.208 E0.57033
G1 X99.861 Y92.088 E0.70021
G1 X101.115 Y92.034 E0.74196
G1 X101.79 Y92.026 E0.76441
G1 X102.91 Y92.048 E0.80167
G1 X104.058 Y92.055 E0.83985
G1 X107.082 Y92.096 E0.94044
G1 X108.434 Y92.146 E0.98544
G1 X108.891 Y92.171 E1.00066
G1 X110.528 Y92.307 E1.05529
G1 X111.271 Y92.396 E1.08018
G1 X112.58 Y92.589 E1.12419
G1 X113.823 Y92.806 E1.16616
G1 X114.354 Y92.914 E1.18418
G1 X115.105 Y93.089 E1.20983
G1 X116.048 Y93.332 E1.24222
G1 X116.934 Y93.608 E1.27308
G1 X118.077 Y94.019 E1.31348
G1 X119.36 Y94.507 E1.35914
G1 X119.997 Y94.762 E1.38196
G1 X120.695 Y95.07 E1.40734
G1 X123.329 Y96.344 E1.50465
G1 X124.132 Y96.721 E1.53416
G1 X124.96 Y97.134 E1.56493
G1 X126.06 Y97.701 E1.60609
G1 X128.34 Y98.796 E1.69022
G1 X130.615 Y99.81 E1.77306
G1 X132.957 Y100.777 E1.85733
G1 X135.296 Y101.665 E1.94055
G1 X136.762 Y102.172 E1.99214
G1 X137.764 Y102.532 E2.02755
G1 X138.631 Y102.89 E2.05875
G1 X139.526 Y103.356 E2.09231
G1 X140.344 Y103.879 E2.1246
G1 X141.035 Y104.408 E2.15355
G1 X141.505 Y104.799 E2.17388
G1 X142.223 Y105.456 E2.20625
G1 X142.858 Y106.147 E2.23747
G1 X143.471 Y106.948 E2.27101
G1 X143.993 Y107.771 E2.30343
G1 X144.439 Y108.637 E2.33583
G1 X144.807 Y109.539 E2.36823
G1 X145.093 Y110.469 E2.40059
G1 X145.297 Y111.422 E2.43301
G1 X145.415 Y112.387 E2.46534
G1 X145.448 Y113.289 E2.49536
G1 X145.39 Y114.345 E2.53054
G1 X145.19 Y115.609 E2.5731
G1 X144.466 Y118.878 E2.68446
G1 X144.212 Y119.815 E2.71675
G1 X143.905 Y120.659 E2.74662
G1 X143.78 Y120.96 E2.75746
G1 X143.368 Y121.841 E2.78981
G1 X142.917 Y122.623 E2.81984
G1 X142.315 Y123.48 E2.85467
G1 X141.708 Y124.196 E2.88589
G1 X140.992 Y124.905 E2.9194
G1 X140.297 Y125.482 E2.94945
G1 X139.436 Y126.075 E2.98422
G1 X138.588 Y126.552 E3.01658
G1 X137.7 Y126.952 E3.04897
G1 X136.784 Y127.272 E3.08125
G1 X135.955 Y127.487 E3.10973
G1 X135.352 Y127.616 E3.13024
G1 X134.377 Y127.778 E3.16311
G1 X133.02 Y127.86 E3.20833
G1 X131.414 Y127.854 E3.26175
G1 X128.118 Y127.917 E3.37139
G1 X125.484 Y128.037 E3.45909
G1 X124.58 Y128.039 E3.48916
G1 X123.404 Y127.93 E3.52844
G1 X122.565 Y127.804 E3.55666
G1 X119.927 Y127.452 E3.64517
G1 X117.434 Y127.19 E3.72855
G1 X114.903 Y126.993 E3.81298
G1 X112.905 Y126.893 E3.87952
G1 X110.485 Y126.79 E3.96008
G1 X110.32 Y126.792 E3.96557
G1 X108.264 Y126.713 E4.03401
G1 X106.554 Y126.589 E4.09103
G1 X105.26 Y126.469 E4.13425
G1 X104.395 Y126.375 E4.16319
G1 X103.716 Y126.279 E4.186
G1 X101.797 Y125.941 E4.25081
G1 X101.077 Y125.798 E4.27522
G1 X99.82 Y125.464 E4.31848
G1 X99.096 Y125.22 E4.34389
G1 X96.486 Y124.291 E4.43604
G1 X94.984 Y123.735 E4.48931
G1 X92.73 Y122.927 E4.56895
G1 X91.482 Y122.499 E4.61283
G1 X88.598 Y121.458 E4.71481
G1 X86.587 Y120.782 E4.78537
G1 X85.129 Y120.231 E4.83721
G1 X84.226 Y119.834 E4.87002
G1 X83.172 Y119.239 E4.91028
G1 X81.819 Y118.369 E4.96378
G1 X81.025 Y117.803 E4.99621
G1 X80.285 Y117.17 E5.0286
G1 X79.594 Y116.462 E5.0615
G1 X78.755 Y115.399 E5.10655
G1 X77.815 Y114.042 E5.16145
G1 X77.181 Y113.161 E5.19755
G1 X76.515 Y112.211 E5.23614
G1 X75.993 Y111.388 E5.26855
G1 X75.547 Y110.523 E5.30092
G1 X75.179 Y109.621 E5.33333
G1 X74.892 Y108.69 E5.36573
G1 X74.689 Y107.738 E5.3981
G1 X74.57 Y106.773 E5.43044
G1 X74.537 Y105.87 E5.4605
G1 X74.6 Y104.735 E5.49831
G1 X74.713 Y103.702 E5.53287
G1 X74.868 Y102.723 E5.56584
G1 X75.103 Y101.778 E5.59822
G1 X75.42 Y100.858 E5.63059
G1 X75.818 Y99.969 E5.66298
G1 X76.275 Y99.149 E5.69421
G1 X76.865 Y98.284 E5.72903
G1 X77.726 Y97.147 E5.77647
G1 X78.234 Y96.506 E5.80367
G1 X78.874 Y95.771 E5.83609
G1 X79.574 Y95.098 E5.86838
M204 S2000
G0 F7500 X79.826 Y95.409
M204 S500
G1 F1500 X80.528 Y94.841 E5.89842
G1 X81.276 Y94.334 E5.92847
G1 X81.675 Y94.089 E5.94405
G1 X82.495 Y93.635 E5.97522
G1 X83.356 Y93.253 E6.00655
G1 X84.401 Y92.904 E6.04319
G1 X85.045 Y92.727 E6.06541
G1 X85.96 Y92.52 E6.09661
G1 X86.89 Y92.393 E6.12783
G1 X87.792 Y92.35 E6.15786
G1 X88.481 Y92.369 E6.18079
G1 X90.933 Y92.516 E6.26249
G1 X93.484 Y92.598 E6.34738
G1 X95.968 Y92.608 E6.43
G1 X99.878 Y92.488 E6.56011
G1 X101.12 Y92.434 E6.60145
G1 X101.782 Y92.426 E6.62347
G1 X102.902 Y92.448 E6.66073
G1 X104.053 Y92.455 E6.69902
G1 X107.067 Y92.496 E6.79927
G1 X108.412 Y92.545 E6.84404
G1 X108.858 Y92.57 E6.85889
G1 X110.48 Y92.704 E6.91302
G1 X111.213 Y92.792 E6.93758
G1 X112.511 Y92.983 E6.98122
G1 X113.743 Y93.198 E7.02281
G1 X114.264 Y93.304 E7.0405
G1 X115.005 Y93.476 E7.0658
G1 X115.929 Y93.714 E7.09753
G1 X116.799 Y93.984 E7.12783
G1 X117.935 Y94.393 E7.16799
G1 X119.212 Y94.879 E7.21343
G1 X119.836 Y95.128 E7.23578
G1 X120.521 Y95.43 E7.26068
G1 X123.159 Y96.706 E7.35814
G1 X123.953 Y97.079 E7.38732
G1 X124.777 Y97.49 E7.41795
G1 X125.887 Y98.062 E7.45948
G1 X128.167 Y99.157 E7.5436
G1 X130.462 Y100.18 E7.62718
G1 X132.804 Y101.147 E7.71145
G1 X135.165 Y102.043 E7.79544
G1 X136.627 Y102.548 E7.84689
G1 X137.611 Y102.902 E7.88167
G1 X138.478 Y103.26 E7.91287
G1 X139.311 Y103.693 E7.94409
G1 X140.101 Y104.197 E7.97526
G1 X140.779 Y104.715 E8.00364
G1 X141.235 Y105.095 E8.02338
G1 X141.928 Y105.727 E8.05458
G1 X142.563 Y106.418 E8.08579
G1 X143.134 Y107.163 E8.11701
G1 X143.638 Y107.955 E8.14823
G1 X144.069 Y108.789 E8.17946
G1 X144.425 Y109.657 E8.21066
G1 X144.702 Y110.553 E8.24185
G1 X144.9 Y111.471 E8.27309
G1 X145.015 Y112.402 E8.30429
G1 X145.048 Y113.304 E8.33431
G1 X144.995 Y114.283 E8.36692
G1 X144.799 Y115.523 E8.40867
G1 X144.08 Y118.774 E8.51941
G1 X143.836 Y119.678 E8.55056
G1 X143.535 Y120.507 E8.57989
G1 X143.418 Y120.791 E8.59011
G1 X143.021 Y121.641 E8.62131
G1 X142.57 Y122.423 E8.65133
G1 X142.01 Y123.221 E8.68376
G1 X141.403 Y123.937 E8.71498
G1 X140.736 Y124.597 E8.74619
G1 X140.041 Y125.174 E8.77623
G1 X139.239 Y125.727 E8.80863
G1 X138.423 Y126.188 E8.83981
G1 X137.568 Y126.575 E8.87102
G1 X136.684 Y126.885 E8.90218
G1 X135.871 Y127.096 E8.93012
G1 X135.286 Y127.222 E8.95002
G1 X134.353 Y127.379 E8.98149
G1 X133.021 Y127.46 E9.02587
G1 X131.407 Y127.454 E9.07955
G1 X128.1 Y127.517 E9.18956
G1 X125.483 Y127.637 E9.2767
G1 X124.579 Y127.639 E9.30676
G1 X123.463 Y127.534 E9.34405
G1 X122.624 Y127.409 E9.37226
G1 X119.969 Y127.054 E9.46135
G1 X117.471 Y126.791 E9.54489
G1 X114.934 Y126.595 E9.62953
G1 X112.922 Y126.493 E9.69653
G1 X110.497 Y126.39 E9.77726
G1 X110.335 Y126.392 E9.78265
G1 X108.293 Y126.314 E9.85062
G1 X106.591 Y126.191 E9.90737
G1 X105.303 Y126.071 E9.9504
G1 X104.451 Y125.979 E9.9789
G1 X103.785 Y125.885 E10.00127
G1 X101.875 Y125.549 E10.06577
G1 X101.18 Y125.411 E10.08934
G1 X99.923 Y125.077 E10.1326
G1 X99.23 Y124.843 E10.15693
G1 X96.625 Y123.916 E10.24889
G1 X95.119 Y123.358 E10.30231
G1 X92.865 Y122.551 E10.38194
G1 X91.618 Y122.123 E10.42579
G1 X88.734 Y121.082 E10.52777
G1 X86.723 Y120.406 E10.59833
G1 X86.311 Y120.257 E10.6129
G1 X85.289 Y119.865 E10.64931
G1 X84.423 Y119.486 E10.68075
G1 X83.388 Y118.902 E10.72028
G1 X82.051 Y118.043 E10.77313
G1 X81.285 Y117.499 E10.80438
G1 X80.571 Y116.89 E10.83559
G1 X79.908 Y116.214 E10.86709
G1 X79.084 Y115.171 E10.9113
G1 X78.144 Y113.814 E10.9662
G1 X77.508 Y112.931 E11.0024
G1 X76.852 Y111.996 E11.04038
G1 X76.348 Y111.204 E11.07161
G1 X75.917 Y110.371 E11.1028
G1 X75.561 Y109.502 E11.13404
G1 X75.283 Y108.606 E11.16524
G1 X75.086 Y107.689 E11.19643
G1 X74.97 Y106.758 E11.22764
G1 X74.937 Y105.855 E11.25769
G1 X74.998 Y104.778 E11.29357
G1 X75.108 Y103.764 E11.3275
G1 X75.256 Y102.819 E11.35931
G1 X75.481 Y101.908 E11.39052
G1 X75.785 Y101.021 E11.42171
G1 X76.168 Y100.163 E11.45296
G1 X76.606 Y99.374 E11.48297
G1 X77.184 Y98.525 E11.51713
G1 X78.039 Y97.395 E11.56426
G1 X78.536 Y96.768 E11.59087
G1 X79.151 Y96.059 E11.62209
G1 X79.826 Y95.409 E11.65326
M204 S2000
G0 F7500 X80.078 Y95.72
M204 S500
G1 F1500 X80.78 Y95.152 E11.68329
G1 X81.486 Y94.675 E11.71163
G1 X81.869 Y94.439 E11.72659
G1 X82.658 Y94 E11.75662
G1 X83.483 Y93.632 E11.78667
G1 X84.507 Y93.29 E11.82258
G1 X85.134 Y93.117 E11.84421
G1 X86.014 Y92.916 E11.87423
G1 X86.909 Y92.793 E11.90428
G1 X87.811 Y92.75 E11.93432
G1 X88.457 Y92.768 E11.95581
G1 X90.92 Y92.916 E12.03788
G1 X93.471 Y92.998 E12.12277
G1 X95.978 Y93.008 E12.20615
G1 X99.896 Y92.888 E12.33653
G1 X101.125 Y92.834 E12.37744
G1 X101.774 Y92.826 E12.39903
G1 X102.894 Y92.848 E12.43629
G1 X104.048 Y92.855 E12.47467
G1 X107.053 Y92.896 E12.57463
G1 X108.389 Y92.944 E12.61909
G1 X108.825 Y92.969 E12.63362
G1 X110.432 Y93.101 E12.68725
G1 X111.155 Y93.188 E12.71147
G1 X112.442 Y93.377 E12.75473
G1 X113.663 Y93.59 E12.79596
G1 X114.174 Y93.694 E12.8133
G1 X114.905 Y93.863 E12.83825
G1 X115.811 Y94.096 E12.86937
G1 X116.663 Y94.36 E12.89904
G1 X117.793 Y94.767 E12.93898
G1 X119.064 Y95.251 E12.98422
G1 X119.675 Y95.494 E13.00609
G1 X120.347 Y95.79 E13.03051
G1 X122.989 Y97.068 E13.12813
G1 X123.775 Y97.437 E13.15701
G1 X124.594 Y97.845 E13.18744
G1 X125.714 Y98.423 E13.22936
G1 X127.994 Y99.518 E13.31348
G1 X130.309 Y100.55 E13.39778
G1 X132.651 Y101.517 E13.48206
G1 X135.023 Y102.417 E13.56644
G1 X136.492 Y102.924 E13.61813
G1 X137.459 Y103.272 E13.65231
G1 X138.294 Y103.615 E13.68233
G1 X139.096 Y104.03 E13.71237
G1 X139.858 Y104.515 E13.74241
G1 X140.523 Y105.023 E13.77024
G1 X140.966 Y105.391 E13.7894
G1 X141.634 Y105.998 E13.81942
G1 X142.246 Y106.662 E13.84945
G1 X142.797 Y107.378 E13.8795
G1 X143.283 Y108.139 E13.90953
G1 X143.699 Y108.941 E13.93958
G1 X144.043 Y109.776 E13.96962
G1 X144.311 Y110.638 E13.99964
G1 X144.503 Y111.521 E14.0297
G1 X144.615 Y112.417 E14.05973
G1 X144.648 Y113.319 E14.08975
G1 X144.6 Y114.221 E14.1198
G1 X144.408 Y115.437 E14.16074
G1 X143.694 Y118.67 E14.27086
G1 X143.46 Y119.542 E14.30089
G1 X143.165 Y120.355 E14.32966
G1 X143.055 Y120.622 E14.33926
G1 X142.674 Y121.441 E14.36931
G1 X142.223 Y122.223 E14.39933
G1 X141.704 Y122.963 E14.42939
G1 X141.121 Y123.653 E14.45944
G1 X140.48 Y124.289 E14.48947
G1 X139.785 Y124.866 E14.51951
G1 X139.042 Y125.379 E14.54954
G1 X138.257 Y125.824 E14.57956
G1 X137.435 Y126.198 E14.60959
G1 X136.583 Y126.498 E14.63964
G1 X135.786 Y126.705 E14.66702
G1 X135.219 Y126.828 E14.68632
G1 X134.329 Y126.98 E14.71635
G1 X133.022 Y127.06 E14.7599
G1 X131.4 Y127.054 E14.81385
G1 X128.082 Y127.117 E14.92423
G1 X125.482 Y127.237 E15.0108
G1 X124.578 Y127.239 E15.04087
G1 X123.521 Y127.138 E15.07618
G1 X122.682 Y127.014 E15.10439
G1 X120.011 Y126.656 E15.19402
G1 X117.508 Y126.392 E15.27773
G1 X114.965 Y126.197 E15.36256
G1 X112.939 Y126.093 E15.43004
G1 X110.509 Y125.99 E15.51093
G1 X110.35 Y125.992 E15.51622
G1 X108.322 Y125.915 E15.58372
G1 X106.628 Y125.793 E15.64021
G1 X105.346 Y125.673 E15.68303
G1 X104.507 Y125.583 E15.7111
G1 X103.854 Y125.491 E15.73303
G1 X101.953 Y125.157 E15.79723
G1 X101.283 Y125.024 E15.81995
G1 X100.026 Y124.69 E15.86321
G1 X99.364 Y124.466 E15.88645
G1 X96.764 Y123.541 E15.97824
G1 X95.254 Y122.981 E16.0318
G1 X93 Y122.175 E16.11142
G1 X91.754 Y121.747 E16.15524
G1 X88.87 Y120.706 E16.25722
G1 X86.859 Y120.03 E16.32778
G1 X86.454 Y119.884 E16.3421
G1 X85.448 Y119.498 E16.37794
G1 X84.62 Y119.138 E16.40797
G1 X83.585 Y118.554 E16.4475
G1 X82.282 Y117.716 E16.49902
G1 X81.544 Y117.194 E16.52909
G1 X80.856 Y116.609 E16.55913
G1 X80.222 Y115.966 E16.58916
G1 X79.413 Y114.943 E16.63254
G1 X78.473 Y113.586 E16.68744
G1 X77.835 Y112.701 E16.72373
G1 X77.189 Y111.781 E16.76112
G1 X76.703 Y111.02 E16.79115
G1 X76.287 Y110.219 E16.82117
G1 X75.943 Y109.383 E16.85124
G1 X75.674 Y108.521 E16.88127
G1 X75.483 Y107.639 E16.91129
G1 X75.37 Y106.743 E16.94133
G1 X75.337 Y105.84 E16.97138
G1 X75.396 Y104.821 E17.00533
G1 X75.506 Y103.807 E17.03925
G1 X75.644 Y102.914 E17.06931
G1 X75.859 Y102.037 E17.09934
G1 X76.151 Y101.183 E17.12936
G1 X76.518 Y100.357 E17.15942
G1 X76.956 Y99.568 E17.18943
G1 X77.503 Y98.766 E17.22172
G1 X78.353 Y97.643 E17.26857
G1 X78.838 Y97.03 E17.29456
G1 X79.429 Y96.347 E17.32461
G1 X80.078 Y95.72 E17.35462
M204 S2000
G1 F2400 E16.55462
;MESH:pengin.stl
G0 F7500 X129.036 Y115.783
M204 S500
;TYPE:WALL-OUTER
G1 F2400 E17.35462
G1 F1207.2 X129.207 Y115.555 E17.3664
G1 F1212.1 X129.211 Y115.253 E17.37883
G1 F1209.7 X129.065 Y115.082 E17.3881
G1 X129.29 Y115.152 E17.39782
G1 F1214.6 X130.272 Y115.152 E17.43816
G1 F1363.6 X130.854 Y115.336 E17.46049
G1 F1546.4 X131.06 Y115.42 E17.46767
G1 F1369.9 X132.075 Y115.668 E17.50572
G1 F1227 X132.952 Y116.032 E17.54433
G1 F1224.5 X133.453 Y116.533 E17.5732
G1 X133.079 Y116.613 E17.58878
G1 F1227 X131.91 Y116.13 E17.64021
G1 F1369.9 X130.955 Y115.79 E17.67713
G1 F1546.4 X130.737 Y115.702 E17.68471
G1 F1363.6 X130.223 Y115.646 E17.70363
G1 F1214.6 X129.49 Y115.646 E17.73374
G1 F1207.2 X129.036 Y115.783 E17.75334
M204 S2000
G1 F2400 E16.95334
G0 F7500 X87.943 Y103.513
G0 X88.167 Y103.836
M204 S500
G1 F2400 E17.75334
G1 F1174.2 X88.289 Y104.274 E17.77265
G1 F1178.8 X88.498 Y104.598 E17.78897
G1 F1169.6 X88.336 Y104.998 E17.80738
G1 F1176.5 X88.029 Y105.206 E17.82311
G1 F1158.3 X86.92 Y104.755 E17.87467
G1 F1010.1 X86.706 Y104.791 E17.88539
G1 F1058.2 X86.47 Y104.655 E17.89823
G1 X86.706 Y104.791 E17.91107
G1 F1029.2 X86.601 Y105.02 E17.92329
G1 F1188.1 X86.074 Y105.591 E17.95591
G1 F1327.4 X86.107 Y105.803 E17.96398
G1 F1373 X86.215 Y105.963 E17.97099
G1 F1232 X86.69 Y106.18 E17.99214
G1 F1197.6 X87.251 Y106.329 E18.01632
G1 F1195.2 X87.943 Y106.644 E18.04806
G1 F1197.6 X88.648 Y106.703 E18.07753
G1 F1200 X89.207 Y106.853 E18.10159
G1 F1202.4 X89.78 Y107.115 E18.12773
G1 F1111.1 X89.951 Y107.241 E18.13727
G1 X89.903 Y107.447 E18.14677
G1 F1192.8 X89.673 Y107.947 E18.16979
G1 F1190.5 X89.228 Y107.948 E18.18844
G1 F1178.8 X89.129 Y107.939 E18.19264
G1 X88.816 Y108.048 E18.20667
G1 F1202.4 X88.425 Y108.317 E18.22636
G1 F1307.2 X88.358 Y108.546 E18.23547
G1 F1463.4 X88.39 Y108.741 E18.24221
G1 F1132.1 X88.3 Y108.88 E18.2495
G1 F864.6 X88.322 Y108.966 E18.25463
G1 X88.271 Y108.893 E18.25977
G1 F1132.1 X88.071 Y108.837 E18.26892
G1 F1500 X87.818 Y108.729 E18.27807
G1 X87.846 Y108.66 E18.28054
G1 X88.067 Y108.506 E18.2895
G1 F1336.3 X88.425 Y108.317 E18.30462
M204 S2000
G0 F7500 X88.322 Y108.966
M204 S500
G1 F845.1 X88.515 Y109.062 E18.31734
G1 F1015.2 X88.77 Y109.275 E18.33367
G1 F1212.1 X89.058 Y109.297 E18.34556
G1 F1083 X89.29 Y109.351 E18.35653
G1 F1018.7 X89.344 Y109.773 E18.37737
G1 F1121.5 X89.506 Y109.871 E18.38579
G1 F1200 X90.354 Y110.19 E18.42346
G1 X91.241 Y110.425 E18.46161
G1 F1197.6 X92.064 Y110.735 E18.49825
G1 X93.666 Y111.157 E18.56726
G1 F1202.4 X95.296 Y111.924 E18.642
G1 F1204.8 X96.088 Y112.087 E18.67549
G1 F1202.4 X96.707 Y112.294 E18.70257
G1 F1197.6 X98.49 Y112.927 E18.78139
G1 F1195.2 X99.629 Y113.47 E18.83406
G1 F1200 X103.326 Y114.784 E18.99718
G1 F1202.4 X105.624 Y115.203 E19.0941
G1 F1197.6 X108.503 Y115.472 E19.21456
