;FLAVOR:Marlin
;TIME:1291
;Filament used: 0.752488m
;Layer height: 0.2
;MINX:76.7
;MINY:86.694
;MINZ:0.2
;MAXX:143.301
;MAXY:133.307
;MAXZ:7.4
;Generated with Cura_SteamEngine 5.4.0
M82 ;absolute extrusion mode
; Ender 3 S1 Pro Start G-code
; M413 S0 ; Disable power loss recovery
G92 E0 ; Reset Extruder

; Prep surfaces before auto home for better accuracy
M140 S60
M104 S200

G28 O ; Home all untrusted axes
G1 Z10.0 F3000 ; Move Z Axis up little to prevent scratching of Heat Bed
G1 X0 Y0

M190 S60
M109 S200

G1 X0.1 Y20 Z0.3 F5000.0 ; Move to start position
G1 X0.1 Y200.0 Z0.3 F1500.0 E15 ; Draw the first line
G1 X0.4 Y200.0 Z0.3 F5000.0 ; Move to side a little
G1 X0.4 Y20 Z0.3 F1500.0 E30 ; Draw the second line
G92 E0 ; Reset Extruder
G1 Z2.0 F3000 ; Move Z Axis up little to prevent scratching of Heat Bed
G1 X5 Y20 Z0.3 F5000.0 ; Move over to prevent blob squish

G92 E0
G92 E0
G1 F2400 E-0.8
;LAYER_COUNT:37
;LAYER:0
M107
M204 S2000
G0 F7500 X80.517 Y89.361 Z0.2
M204 S500
;TYPE:SKIRT
G1 F2400 E0
G1 F1500 X81.282 Y88.758 E0.0324
G1 X82.098 Y88.226 E0.0648
G1 X82.958 Y87.767 E0.09722
G1 X83.854 Y87.388 E0.12958
G1 X84.781 Y87.088 E0.16198
G1 X85.73 Y86.872 E0.19435
G1 X86.696 Y86.739 E0.22679
G1 X87.669 Y86.694 E0.25918
G1 X88.642 Y86.735 E0.29157
G1 X89.619 Y86.863 E0.32435
G1 X90.514 Y87.023 E0.35459
G1 X93.605 Y87.625 E0.45933
G1 X95.5 Y88.022 E0.52372
G1 X96.206 Y88.179 E0.54778
G1 X98.68 Y88.659 E0.6316
G1 X101.183 Y89.072 E0.71597
G1 X103.665 Y89.411 E0.79929
G1 X106.2 Y89.684 E0.88409
G1 X108.685 Y89.882 E0.96701
G1 X111.205 Y90.008 E1.05093
G1 X113.699 Y90.063 E1.1339
G1 X116.22 Y90.048 E1.21775
G1 X119.326 Y89.941 E1.32112
G1 X119.924 Y89.937 E1.34101
G1 X120.78 Y89.956 E1.36948
G1 X123.354 Y89.975 E1.4551
G1 X125.886 Y89.921 E1.53933
G1 X128.488 Y89.793 E1.62598
G1 X129.722 Y89.714 E1.66711
G1 X130.695 Y89.698 E1.69947
G1 X131.667 Y89.768 E1.73188
G1 X132.629 Y89.924 E1.7643
G1 X133.572 Y90.164 E1.79666
G1 X134.425 Y90.461 E1.8267
G1 X135.187 Y90.796 E1.85439
G1 X136.379 Y91.377 E1.89849
G1 X137.397 Y91.907 E1.93667
G1 X138.253 Y92.406 E1.96962
G1 X139.048 Y92.968 E2.002
G1 X139.791 Y93.598 E2.0344
G1 X140.474 Y94.291 E2.06677
G1 X141.051 Y94.986 E2.09681
G1 X141.644 Y95.847 E2.13158
G1 X142.121 Y96.695 E2.16394
G1 X142.521 Y97.583 E2.19634
G1 X142.843 Y98.503 E2.22875
G1 X143.08 Y99.448 E2.26116
G1 X143.233 Y100.409 E2.29352
G1 X143.301 Y101.381 E2.32593
G1 X143.283 Y102.354 E2.3583
G1 X143.179 Y103.323 E2.39071
G1 X143.005 Y104.209 E2.42075
G1 X142.71 Y105.223 E2.45587
G1 X142.263 Y106.329 E2.49555
G1 X141.965 Y106.948 E2.5184
G1 X139.581 Y111.619 E2.69282
G1 X139.248 Y112.246 E2.71643
G1 X138.752 Y113.084 E2.74882
G1 X138.185 Y113.874 E2.78116
G1 X137.576 Y114.583 E2.81225
G1 X137.026 Y115.131 E2.83807
G1 X136.545 Y115.572 E2.85978
G1 X131.828 Y119.68 E3.06782
G1 X131.138 Y120.265 E3.09791
G1 X130.472 Y120.783 E3.12597
G1 X129.887 Y121.197 E3.14981
G1 X128.621 Y122.069 E3.20094
G1 X126.572 Y123.567 E3.28536
G1 X124.604 Y125.094 E3.36821
G1 X122.682 Y126.675 E3.45098
G1 X120.037 Y128.994 E3.56798
G1 X119.31 Y129.576 E3.59895
G1 X118.819 Y129.915 E3.6188
G1 X118.211 Y130.312 E3.64295
G1 X116.723 Y131.246 E3.70138
G1 X115.947 Y131.72 E3.73162
G1 X115.123 Y132.172 E3.76288
G1 X114.199 Y132.576 E3.79643
G1 X113.275 Y132.885 E3.82883
G1 X112.328 Y133.111 E3.86121
G1 X111.435 Y133.245 E3.89125
G1 X110.391 Y133.307 E3.92603
G1 X109.419 Y133.275 E3.95838
G1 X108.452 Y133.158 E3.99077
G1 X107.499 Y132.957 E4.02317
G1 X106.566 Y132.671 E4.05563
G1 X105.697 Y132.318 E4.08682
G1 X104.797 Y131.857 E4.12046
G1 X103.937 Y131.312 E4.15432
G1 X103.469 Y130.981 E4.17338
G1 X101.341 Y129.531 E4.25903
G1 X99.18 Y128.145 E4.34442
G1 X97.053 Y126.865 E4.42699
G1 X94.825 Y125.609 E4.51205
G1 X93.358 Y124.823 E4.56741
G1 X92.521 Y124.325 E4.5998
G1 X91.788 Y123.798 E4.62983
G1 X91.363 Y123.448 E4.64814
G1 X90.414 Y122.621 E4.69001
G1 X84.049 Y116.881 E4.97508
G1 X83.391 Y116.27 E5.00494
G1 X82.708 Y115.574 E5.03738
G1 X82.102 Y114.835 E5.06916
G1 X81.802 Y114.416 E5.0863
G1 X81.301 Y113.677 E5.116
G1 X80.71 Y112.778 E5.15178
G1 X80.305 Y112.138 E5.17697
G1 X79.823 Y111.292 E5.20936
G1 X79.417 Y110.407 E5.24174
G1 X79.102 Y109.528 E5.2728
G1 X78.916 Y108.852 E5.29612
G1 X78.74 Y108.115 E5.32132
G1 X77.062 Y100.588 E5.57781
G1 X76.922 Y99.912 E5.60077
G1 X76.769 Y98.952 E5.63311
G1 X76.7 Y97.979 E5.66555
G1 X76.718 Y97.006 E5.69792
G1 X76.821 Y96.037 E5.73033
G1 X76.994 Y95.151 E5.76035
G1 X77.284 Y94.148 E5.79508
G1 X77.638 Y93.241 E5.82746
G1 X78.072 Y92.368 E5.85989
G1 X78.581 Y91.539 E5.89224
G1 X79.16 Y90.756 E5.92463
G1 X79.783 Y90.053 E5.95588
G1 X80.517 Y89.361 E5.98943
M204 S2000
G0 F7500 X80.765 Y89.675
M204 S500
G1 F1500 X81.501 Y89.093 E6.02064
G1 X82.287 Y88.579 E6.05187
G1 X83.115 Y88.135 E6.08312
G1 X83.978 Y87.768 E6.11431
G1 X84.87 Y87.478 E6.14551
G1 X85.785 Y87.268 E6.17673
G1 X86.715 Y87.139 E6.20796
G1 X87.653 Y87.094 E6.2392
G1 X88.59 Y87.132 E6.27039
G1 X89.549 Y87.257 E6.30255
G1 X90.438 Y87.416 E6.33259
G1 X93.523 Y88.016 E6.43712
G1 X95.413 Y88.412 E6.50135
G1 X96.13 Y88.572 E6.52578
G1 X98.61 Y89.053 E6.6098
G1 X101.118 Y89.467 E6.69435
G1 X103.622 Y89.809 E6.7784
G1 X106.161 Y90.082 E6.86334
G1 X108.653 Y90.28 E6.94648
G1 X111.196 Y90.408 E7.03117
G1 X113.692 Y90.463 E7.11421
G1 X116.234 Y90.448 E7.19876
G1 X119.329 Y90.341 E7.30176
G1 X119.915 Y90.337 E7.32125
G1 X120.771 Y90.356 E7.34973
G1 X123.359 Y90.375 E7.43581
G1 X125.906 Y90.321 E7.52054
G1 X128.508 Y90.192 E7.60719
G1 X129.729 Y90.114 E7.64788
G1 X130.667 Y90.097 E7.67909
G1 X131.604 Y90.163 E7.71033
G1 X132.531 Y90.312 E7.74156
G1 X133.44 Y90.542 E7.77274
G1 X134.293 Y90.839 E7.80278
G1 X135.012 Y91.155 E7.82891
G1 X136.194 Y91.732 E7.87265
G1 X137.196 Y92.253 E7.91022
G1 X138.023 Y92.733 E7.94202
G1 X138.79 Y93.273 E7.97322
G1 X139.506 Y93.879 E8.00442
G1 X140.166 Y94.547 E8.03565
G1 X140.743 Y95.242 E8.06569
G1 X141.296 Y96.044 E8.09809
G1 X141.757 Y96.86 E8.12927
G1 X142.144 Y97.715 E8.16048
G1 X142.455 Y98.601 E8.19171
G1 X142.685 Y99.511 E8.22293
G1 X142.834 Y100.438 E8.25416
G1 X142.901 Y101.374 E8.28537
G1 X142.885 Y102.312 E8.31657
G1 X142.786 Y103.246 E8.34781
G1 X142.612 Y104.132 E8.37784
G1 X142.339 Y105.073 E8.41043
G1 X141.892 Y106.179 E8.45011
G1 X141.609 Y106.766 E8.47178
G1 X139.228 Y111.432 E8.64601
G1 X138.904 Y112.043 E8.66901
G1 X138.427 Y112.851 E8.70022
G1 X137.881 Y113.614 E8.73143
G1 X137.293 Y114.3 E8.76148
G1 X136.756 Y114.836 E8.78671
G1 X136.282 Y115.27 E8.80809
G1 X131.569 Y119.375 E9.01597
G1 X130.892 Y119.949 E9.04549
G1 X130.226 Y120.467 E9.07355
G1 X129.66 Y120.868 E9.09662
G1 X128.385 Y121.746 E9.14811
G1 X126.336 Y123.244 E9.23253
G1 X124.359 Y124.778 E9.31576
G1 X122.418 Y126.374 E9.39934
G1 X119.787 Y128.682 E9.51575
G1 X119.082 Y129.247 E9.54579
G1 X118.601 Y129.58 E9.56525
G1 X117.998 Y129.973 E9.58919
G1 X116.515 Y130.905 E9.64745
G1 X115.755 Y131.369 E9.67706
G1 X114.931 Y131.821 E9.70832
G1 X114.072 Y132.197 E9.73951
G1 X113.182 Y132.496 E9.77074
G1 X112.269 Y132.715 E9.80197
G1 X111.376 Y132.849 E9.832
G1 X110.403 Y132.907 E9.86442
G1 X109.466 Y132.878 E9.8956
G1 X108.534 Y132.767 E9.92682
G1 X107.616 Y132.574 E9.95802
G1 X106.717 Y132.3 E9.98928
G1 X105.848 Y131.947 E10.02047
G1 X105.011 Y131.519 E10.05174
G1 X104.151 Y130.974 E10.0856
G1 X103.694 Y130.65 E10.10424
G1 X101.566 Y129.2 E10.18988
G1 X99.396 Y127.808 E10.27563
G1 X97.259 Y126.522 E10.35858
G1 X95.014 Y125.256 E10.44431
G1 X93.562 Y124.479 E10.49908
G1 X92.755 Y124 E10.53029
G1 X92.022 Y123.473 E10.56032
G1 X91.626 Y123.146 E10.5774
G1 X90.682 Y122.324 E10.61904
G1 X84.321 Y116.588 E10.90392
G1 X83.676 Y115.99 E10.93317
G1 X83.017 Y115.32 E10.96443
G1 X82.427 Y114.602 E10.99534
G1 X82.133 Y114.191 E11.01215
G1 X81.635 Y113.457 E11.04165
G1 X81.048 Y112.564 E11.07719
G1 X80.652 Y111.939 E11.1018
G1 X80.186 Y111.125 E11.133
G1 X79.794 Y110.272 E11.16422
G1 X79.479 Y109.393 E11.19528
G1 X79.305 Y108.759 E11.21714
G1 X79.13 Y108.028 E11.24214
G1 X77.454 Y100.506 E11.49846
G1 X77.317 Y99.848 E11.52081
G1 X77.168 Y98.923 E11.55198
G1 X77.1 Y97.986 E11.58322
G1 X77.116 Y97.048 E11.61443
G1 X77.214 Y96.114 E11.64566
G1 X77.387 Y95.228 E11.67569
G1 X77.657 Y94.293 E11.70806
G1 X77.997 Y93.418 E11.73928
G1 X78.413 Y92.577 E11.77048
G1 X78.903 Y91.776 E11.80172
G1 X79.46 Y91.021 E11.83292
G1 X80.058 Y90.344 E11.86296
G1 X80.765 Y89.675 E11.89534
M204 S2000
G0 F7500 X81.014 Y89.988
M204 S500
G1 F1500 X81.721 Y89.427 E11.92536
G1 X82.476 Y88.931 E11.9554
G1 X83.272 Y88.503 E11.98546
G1 X84.102 Y88.148 E12.01549
G1 X84.96 Y87.868 E12.04551
G1 X85.84 Y87.664 E12.07555
G1 X86.735 Y87.539 E12.10561
G1 X87.637 Y87.494 E12.13564
G1 X88.539 Y87.529 E12.16567
G1 X89.479 Y87.651 E12.19719
G1 X90.362 Y87.809 E12.22703
G1 X93.441 Y88.407 E12.33135
G1 X95.326 Y88.802 E12.39541
G1 X96.054 Y88.965 E12.42022
G1 X98.54 Y89.447 E12.50445
G1 X101.053 Y89.862 E12.58916
G1 X103.579 Y90.207 E12.67396
G1 X106.123 Y90.48 E12.75906
G1 X108.621 Y90.678 E12.8424
G1 X111.187 Y90.808 E12.92785
G1 X113.685 Y90.863 E13.01096
G1 X116.248 Y90.848 E13.09621
G1 X119.332 Y90.741 E13.19884
G1 X119.906 Y90.737 E13.21793
G1 X120.762 Y90.756 E13.24641
G1 X123.364 Y90.775 E13.33296
G1 X125.926 Y90.721 E13.41819
G1 X128.528 Y90.591 E13.50484
G1 X129.737 Y90.514 E13.54513
G1 X130.64 Y90.496 E13.57517
G1 X131.541 Y90.558 E13.60521
G1 X132.433 Y90.7 E13.63525
G1 X133.308 Y90.92 E13.66526
G1 X134.161 Y91.217 E13.6953
G1 X134.836 Y91.514 E13.71983
G1 X136.009 Y92.087 E13.76325
G1 X137.011 Y92.608 E13.80081
G1 X137.793 Y93.06 E13.83085
G1 X138.532 Y93.579 E13.86089
G1 X139.222 Y94.161 E13.89091
G1 X139.858 Y94.803 E13.92097
G1 X140.435 Y95.498 E13.95101
G1 X140.948 Y96.241 E13.98104
G1 X141.393 Y97.026 E14.01106
G1 X141.767 Y97.848 E14.04109
G1 X142.067 Y98.7 E14.07114
G1 X142.29 Y99.575 E14.10117
G1 X142.435 Y100.467 E14.13123
G1 X142.501 Y101.368 E14.16127
G1 X142.487 Y102.27 E14.19128
G1 X142.393 Y103.169 E14.22134
G1 X142.219 Y104.055 E14.25137
G1 X141.968 Y104.923 E14.28143
G1 X141.521 Y106.029 E14.3211
G1 X141.253 Y106.584 E14.3416
G1 X138.874 Y111.245 E14.51565
G1 X138.559 Y111.84 E14.53804
G1 X138.101 Y112.619 E14.5681
G1 X137.577 Y113.354 E14.59812
G1 X136.989 Y114.04 E14.62817
G1 X136.486 Y114.541 E14.65179
G1 X136.019 Y114.968 E14.67283
G1 X131.31 Y119.07 E14.88055
G1 X130.646 Y119.633 E14.9095
G1 X129.98 Y120.151 E14.93756
G1 X129.433 Y120.539 E14.95987
G1 X128.149 Y121.423 E15.01172
G1 X126.1 Y122.921 E15.09614
G1 X124.114 Y124.462 E15.17974
G1 X122.154 Y126.073 E15.26413
G1 X119.537 Y128.37 E15.37994
G1 X118.832 Y128.935 E15.40999
G1 X118.383 Y129.245 E15.42814
G1 X117.785 Y129.634 E15.45187
G1 X116.307 Y130.564 E15.50995
G1 X115.562 Y131.019 E15.53898
G1 X114.77 Y131.455 E15.56905
G1 X113.944 Y131.818 E15.59906
G1 X113.088 Y132.107 E15.62911
G1 X112.21 Y132.319 E15.65915
G1 X111.317 Y132.453 E15.68919
G1 X110.415 Y132.507 E15.71924
G1 X109.513 Y132.481 E15.74925
G1 X108.616 Y132.375 E15.7793
G1 X107.732 Y132.191 E15.80933
G1 X106.867 Y131.929 E15.83939
G1 X106.03 Y131.591 E15.86941
G1 X105.225 Y131.181 E15.89946
G1 X104.382 Y130.647 E15.93265
G1 X103.924 Y130.324 E15.95129
G1 X101.782 Y128.863 E16.03753
G1 X99.612 Y127.471 E16.12327
G1 X97.465 Y126.179 E16.20662
G1 X95.203 Y124.903 E16.293
G1 X93.766 Y124.135 E16.34719
G1 X92.989 Y123.675 E16.37722
G1 X92.256 Y123.148 E16.40725
G1 X91.889 Y122.844 E16.4231
G1 X90.95 Y122.027 E16.4645
G1 X84.593 Y116.294 E16.74921
G1 X83.961 Y115.709 E16.77786
G1 X83.326 Y115.066 E16.80791
G1 X82.752 Y114.369 E16.83794
G1 X82.464 Y113.967 E16.85439
G1 X81.969 Y113.237 E16.88373
G1 X81.386 Y112.349 E16.91906
G1 X80.999 Y111.74 E16.94306
G1 X80.549 Y110.957 E16.9731
G1 X80.17 Y110.137 E17.00314
G1 X79.865 Y109.287 E17.03318
G1 X79.694 Y108.666 E17.0546
G1 X79.52 Y107.941 E17.0794
G1 X77.846 Y100.424 E17.33554
G1 X77.712 Y99.784 E17.35729
G1 X77.567 Y98.893 E17.38731
G1 X77.5 Y97.992 E17.41736
G1 X77.514 Y97.089 E17.4474
G1 X77.607 Y96.191 E17.47743
G1 X77.78 Y95.305 E17.50745
G1 X78.03 Y94.437 E17.5375
G1 X78.356 Y93.595 E17.56753
G1 X78.755 Y92.785 E17.59756
G1 X79.225 Y92.013 E17.62762
G1 X79.76 Y91.286 E17.65764
G1 X80.358 Y90.609 E17.68768
G1 X81.014 Y89.988 E17.71773
M204 S2000
G1 F2400 E16.91773
;MESH:syati.stl
G0 F7500 X88.424 Y97.147
G0 X110.956 Y121.17
M204 S500
;TYPE:WALL-INNER
G1 F2400 E17.71773
G1 F1500 X112.295 Y120.329 E17.77032
G1 X113.358 Y116.671 E17.89702
G1 X113.54 Y116.428 E17.90712
G1 X118.074 Y113.581 E18.08518
G1 X123.761 Y111.325 E18.28867
G1 X128.499 Y107.196 E18.4977
G1 F1209.7 X128.737 Y106.862 E18.51462
G1 F1023.9 X128.998 Y106.641 E18.53128
G1 F1034.5 X129.179 Y106.288 E18.55041
G1 F1005 X129.608 Y105.387 E18.59995
G1 X128.85 Y106.036 E18.64949
G1 F1023.9 X128.368 Y106.398 E18.67886
G1 F1209.7 X127.989 Y106.555 E18.69578
G1 F1500 X127.604 Y106.829 E18.71149
G1 X126.576 Y107.387 E18.7504
G1 X125.682 Y107.593 E18.78091
G1 X125.314 Y107.561 E18.7932
G1 X124.758 Y107.329 E18.81323
G1 X124.61 Y107.164 E18.82061
G1 X124.515 Y106.944 E18.82858
G1 X124.526 Y106.653 E18.83826
G1 X125.029 Y105.447 E18.88172
G1 X125.706 Y104.669 E18.91603
G1 X126.217 Y104.179 E18.93957
G1 X125.283 Y104.181 E18.97064
G1 X123.081 Y103.556 E19.04677
G1 X122.871 Y103.401 E19.05545
G1 X122.771 Y103.239 E19.06178
G1 X122.725 Y103.047 E19.06835
G1 X122.799 Y102.714 E19.07969
G1 X122.861 Y102.603 E19.08392
G1 X122.861 Y102.193 E19.09756
G1 X119.655 Y101.535 E19.20641
G1 X117.655 Y101.806 E19.27354
G1 X117.716 Y102.251 E19.28848
G1 X118.188 Y102.916 E19.31561
G1 X118.289 Y103.15 E19.32408
G1 X118.271 Y103.446 E19.33395
G1 X118.186 Y103.616 E19.34027
G1 X117.941 Y103.821 E19.35089
G1 X110.336 Y105.926 E19.61335
G1 X105.99 Y106.515 E19.75922
G1 X106.494 Y106.822 E19.77884
G1 X107.126 Y107.097 E19.80177
G1 X107.427 Y107.387 E19.81567
G1 X107.486 Y107.664 E19.82509
G1 X107.454 Y107.844 E19.83117
G1 X106.83 Y109.634 E19.89422
G1 X106.672 Y109.826 E19.90249
G1 X102.998 Y112.775 E20.05918
G1 X102.743 Y112.894 E20.06854
G1 X102.517 Y112.905 E20.07607
G1 X98.002 Y111.349 E20.23491
G1 X97.825 Y111.19 E20.24282
G1 X96.487 Y109.525 E20.31386
G1 X96.371 Y109.287 E20.32267
G1 X96.363 Y109.054 E20.33042
G1 X96.434 Y108.852 E20.33754
G1 X96.58 Y108.68 E20.34505
G1 X97.25 Y108.142 E20.37363
G1 F1425.2 X97.742 Y108 E20.39155
G1 F1232 X98.009 Y108.005 E20.40237
G1 F1142.9 X98.436 Y108.095 E20.42142
G1 F1304.3 X99.061 Y108.27 E20.44624
G1 F1500 X100.864 Y108.036 E20.50671
G1 X102.101 Y107.041 E20.55951
G1 X99.018 Y107.458 E20.66299
G1 F1304.3 X98.486 Y107.582 E20.68388
G1 F1142.9 X98.183 Y107.51 E20.69748
G1 F1232 X97.971 Y107.348 E20.70828
G1 F1425.2 X97.131 Y106.876 E20.74201
G1 F1500 X95.551 Y106.032 E20.80159
G1 X91.202 Y101.876 E21.00167
G1 X91.062 Y101.672 E21.0099
G1 X91.007 Y101.428 E21.01822
G1 X91.474 Y99.028 E21.09954
G1 X88.469 Y98.444 E21.20135
G1 X90.161 Y106.035 E21.46003
G1 X91.348 Y107.838 E21.53182
G1 X98.741 Y114.507 E21.86298
G1 X100.185 Y114.408 E21.91112
G1 X105.981 Y116.082 E22.11177
G1 X106.091 Y115.736 E22.12385
G1 X109.929 Y112.649 E22.28767
G1 X110.182 Y112.557 E22.29662
G1 X111.816 Y112.557 E22.35097
G1 X112.114 Y112.685 E22.36176
G1 X112.256 Y112.845 E22.36887
G1 X112.42 Y113.265 E22.38387
G1 X112.408 Y113.497 E22.3916
G1 X112.338 Y113.682 E22.39818
G1 X112.196 Y113.845 E22.40537
G1 X111.471 Y114.43 E22.43635
G1 X110.798 Y116.072 E22.49537
G1 X110.08 Y117.299 E22.54266
G1 X110.469 Y117.564 E22.55831
G1 X110.76 Y117.872 E22.5724
G1 X110.991 Y118.235 E22.58672
G1 X111.135 Y118.642 E22.60107
G1 X111.191 Y119.065 E22.61527
G1 X111.162 Y119.432 E22.62751
G1 X111.071 Y119.787 E22.6397
G1 X110.956 Y121.17 E22.68586
M204 S2000
G0 F7500 X111.097 Y120.694
G0 X112.155 Y120.224
G0 X113.541 Y116.617
G0 X118.135 Y113.729
G0 X123.675 Y111.185
G0 X128.4 Y107.069
G0 X129.27 Y105.828
G0 X129.592 Y105.401
M204 S500
G1 F917.4 X129.712 Y105.156 E22.70069
G1 F1134.2 X130.05 Y104.777 E22.72303
G1 F1500 X131.509 Y101.916 E22.82985
G1 X130.753 Y101.531 E22.85806
G1 X130.729 Y101.901 E22.8704
G1 X130.016 Y102.681 E22.90554
