;FLAVOR:Marlin
;TIME:12443
;Filament used: 10.2949m
;Layer height: 0.2
;MINX:39.64
;MINY:39.633
;MINZ:0.2
;MAXX:180.37
;MAXY:180.367
;MAXZ:20
;Generated with Cura_SteamEngine 5.4.0
M82 ;absolute extrusion mode
; Ender 3 S1 Pro Start G-code
; M413 S0 ; Disable power loss recovery
G92 E0 ; Reset Extruder

; Prep surfaces before auto home for better accuracy
M140 S60
M104 S200

G28 O ; Home all untrusted axes
G1 Z10.0 F3000 ; Move Z Axis up little to prevent scratching of Heat Bed
G1 X0 Y0

M190 S60
M109 S200

G1 X0.1 Y20 Z0.3 F5000.0 ; Move to start position
G1 X0.1 Y200.0 Z0.3 F1500.0 E15 ; Draw the first line
G1 X0.4 Y200.0 Z0.3 F5000.0 ; Move to side a little
G1 X0.4 Y20 Z0.3 F1500.0 E30 ; Draw the second line
G92 E0 ; Reset Extruder
G1 Z2.0 F3000 ; Move Z Axis up little to prevent scratching of Heat Bed
G1 X5 Y20 Z0.3 F5000.0 ; Move over to prevent blob squish

G92 E0
G92 E0
G1 F2400 E-0.8
;LAYER_COUNT:100
;LAYER:0
M107
M204 S2000
G0 F7500 X59.732 Y60.764 Z0.2
M204 S500
;TYPE:SKIRT
G1 F2400 E0
G1 F1500 X60.667 Y59.837 E0.04379
G1 X62.241 Y58.332 E0.11622
G1 X62.986 Y57.646 E0.14991
G1 X63.793 Y56.943 E0.1855
G1 X65.353 Y55.622 E0.25349
G1 X66.236 Y54.902 E0.29139
G1 X66.948 Y54.351 E0.32133
G1 X68.686 Y53.047 E0.3936
G1 X69.543 Y52.428 E0.42876
G1 X70.456 Y51.807 E0.46549
G1 X72.162 Y50.681 E0.53347
G1 X73.103 Y50.083 E0.57056
G1 X73.925 Y49.594 E0.60237
G1 X75.928 Y48.437 E0.6793
G1 X76.711 Y48.005 E0.70905
G1 X77.643 Y47.521 E0.74398
G1 X79.484 Y46.599 E0.81246
G1 X80.477 Y46.125 E0.84905
G1 X81.519 Y45.661 E0.88699
G1 X83.51 Y44.813 E0.95897
G1 X84.416 Y44.446 E0.99148
G1 X85.318 Y44.109 E1.02351
G1 X87.258 Y43.414 E1.09205
G1 X88.346 Y43.046 E1.13025
G1 X89.159 Y42.794 E1.15856
G1 X91.473 Y42.116 E1.23876
G1 X92.381 Y41.87 E1.27005
G1 X93.415 Y41.62 E1.30543
G1 X95.562 Y41.131 E1.37867
G1 X96.46 Y40.947 E1.40916
G1 X97.531 Y40.75 E1.44538
G1 X99.714 Y40.391 E1.51896
G1 X100.771 Y40.237 E1.55448
G1 X101.749 Y40.12 E1.58724
G1 X103.732 Y39.91 E1.65357
G1 X104.778 Y39.821 E1.68848
G1 X105.916 Y39.752 E1.7264
G1 X108.105 Y39.657 E1.79928
G1 X109.067 Y39.634 E1.83128
G1 X109.897 Y39.633 E1.85889
G1 X112.133 Y39.664 E1.93327
G1 X113.246 Y39.702 E1.97031
G1 X114.285 Y39.764 E2.00493
G1 X116.525 Y39.934 E2.07964
G1 X117.41 Y40.018 E2.10921
G1 X118.335 Y40.129 E2.1402
G1 X120.734 Y40.456 E2.22073
G1 X121.674 Y40.601 E2.25236
G1 X122.471 Y40.746 E2.2793
G1 X125.281 Y41.305 E2.3746
G1 X125.694 Y41.397 E2.38867
G1 X126.791 Y41.664 E2.42622
G1 X128.742 Y42.172 E2.49327
G1 X129.791 Y42.464 E2.52949
G1 X130.885 Y42.802 E2.56757
G1 X132.882 Y43.452 E2.63742
G1 X133.845 Y43.786 E2.67133
G1 X134.798 Y44.144 E2.70519
G1 X136.728 Y44.9 E2.77413
G1 X137.738 Y45.319 E2.8105
G1 X138.592 Y45.699 E2.84158
G1 X140.654 Y46.653 E2.91715
G1 X141.587 Y47.108 E2.95168
G1 X142.502 Y47.583 E2.98597
G1 X144.335 Y48.57 E3.05521
G1 X145.289 Y49.106 E3.0916
G1 X146.131 Y49.611 E3.12426
G1 X148.469 Y51.065 E3.21583
G1 X149.711 Y51.902 E3.26565
G1 X151.468 Y53.14 E3.33713
G1 X152.318 Y53.762 E3.37217
G1 X153.111 Y54.374 E3.40548
G1 X154.849 Y55.763 E3.47948
G1 X155.548 Y56.342 E3.50967
G1 X156.213 Y56.922 E3.53902
G1 X157.977 Y58.511 E3.61798
G1 X158.7 Y59.186 E3.65088
G1 X159.444 Y59.92 E3.68564
G1 X160.996 Y61.497 E3.75923
G1 X161.643 Y62.178 E3.79048
G1 X162.349 Y62.963 E3.82559
G1 X163.805 Y64.631 E3.89923
G1 X164.43 Y65.374 E3.93153
G1 X165.071 Y66.18 E3.96578
G1 X166.397 Y67.896 E4.03791
G1 X167.027 Y68.745 E4.07307
G1 X167.565 Y69.512 E4.10423
G1 X168.846 Y71.388 E4.17979
G1 X169.343 Y72.151 E4.21007
G1 X169.912 Y73.069 E4.24599
G1 X171.06 Y74.994 E4.32054
G1 X171.509 Y75.785 E4.35079
G1 X172.012 Y76.721 E4.38613
G1 X172.95 Y78.527 E4.45382
G1 X173.336 Y79.3 E4.48256
G1 X173.809 Y80.308 E4.51959
G1 X174.783 Y82.494 E4.59919
G1 X175.148 Y83.359 E4.63042
G1 X175.54 Y84.354 E4.66599
G1 X176.264 Y86.286 E4.73461
G1 X176.644 Y87.36 E4.7725
G1 X176.904 Y88.159 E4.80045
G1 X177.556 Y90.267 E4.87383
G1 X177.874 Y91.363 E4.91179
G1 X178.087 Y92.184 E4.94
G1 X178.656 Y94.504 E5.01945
G1 X178.859 Y95.41 E5.05033
G1 X179.076 Y96.5 E5.0873
G1 X179.437 Y98.502 E5.15496
G1 X179.611 Y99.586 E5.19147
G1 X179.749 Y100.609 E5.22581
G1 X179.997 Y102.681 E5.29521
G1 X180.111 Y103.794 E5.33243
G1 X180.186 Y104.794 E5.36578
G1 X180.311 Y106.849 E5.43426
G1 X180.354 Y107.899 E5.46921
G1 X180.37 Y109.082 E5.50856
G1 X180.364 Y111.467 E5.58788
G1 X180.344 Y112.449 E5.62055
G1 X180.297 Y113.431 E5.65325
G1 X180.174 Y115.416 E5.7194
G1 X180.09 Y116.454 E5.75404
G1 X180.009 Y117.214 E5.77946
G1 X179.718 Y119.644 E5.86086
G1 X179.589 Y120.579 E5.89225
G1 X179.449 Y121.415 E5.92044
G1 X178.928 Y124.254 E6.01644
G1 X178.842 Y124.674 E6.0307
G1 X178.589 Y125.778 E6.06838
G1 X178.072 Y127.885 E6.14053
G1 X177.82 Y128.833 E6.17316
G1 X177.592 Y129.612 E6.20016
G1 X176.872 Y131.949 E6.28149
G1 X176.587 Y132.81 E6.31165
G1 X176.243 Y133.77 E6.34557
G1 X175.508 Y135.727 E6.4151
G1 X175.099 Y136.759 E6.45202
G1 X174.768 Y137.538 E6.48018
G1 X173.772 Y139.775 E6.56162
G1 X173.402 Y140.566 E6.59066
G1 X172.902 Y141.565 E6.62782
G1 X171.918 Y143.459 E6.69881
G1 X171.445 Y144.331 E6.7318
G1 X170.898 Y145.278 E6.76818
G1 X169.881 Y146.983 E6.83421
G1 X169.27 Y147.965 E6.87268
G1 X168.792 Y148.691 E6.90159
G1 X167.444 Y150.668 E6.98117
G1 X166.907 Y151.423 E7.01199
G1 X166.287 Y152.248 E7.04631
G1 X164.958 Y153.967 E7.11858
G1 X164.313 Y154.768 E7.15279
G1 X163.65 Y155.547 E7.18681
G1 X162.268 Y157.13 E7.2567
G1 X161.583 Y157.886 E7.29063
G1 X160.915 Y158.587 E7.32284
G1 X159.253 Y160.27 E7.40151
G1 X158.536 Y160.97 E7.43484
G1 X157.911 Y161.55 E7.4632
G1 X156.158 Y163.128 E7.54165
G1 X155.442 Y163.746 E7.5731
G1 X154.751 Y164.314 E7.60285
G1 X152.887 Y165.798 E7.6821
G1 X152.064 Y166.428 E7.71657
G1 X151.269 Y167.003 E7.74921
G1 X149.519 Y168.234 E7.82037
G1 X148.977 Y168.601 E7.84214
G1 X147.834 Y169.336 E7.88734
G1 X146.066 Y170.429 E7.95647
G1 X145.093 Y171.006 E7.9941
G1 X144.42 Y171.382 E8.01974
G1 X142.288 Y172.532 E8.10031
G1 X141.456 Y172.958 E8.13139
G1 X140.466 Y173.435 E8.16794
G1 X138.459 Y174.363 E8.24149
G1 X137.589 Y174.745 E8.27309
G1 X136.663 Y175.123 E8.30636
G1 X134.708 Y175.892 E8.37623
G1 X133.663 Y176.281 E8.41332
G1 X132.709 Y176.604 E8.44682
G1 X130.605 Y177.289 E8.52041
G1 X129.69 Y177.566 E8.55221
G1 X128.643 Y177.853 E8.58832
G1 X126.597 Y178.384 E8.65862
G1 X125.559 Y178.633 E8.69412
G1 X124.66 Y178.826 E8.72471
G1 X122.365 Y179.274 E8.80248
G1 X121.422 Y179.441 E8.83433
G1 X120.471 Y179.582 E8.86631
G1 X118.379 Y179.867 E8.93653
G1 X117.298 Y179.994 E8.97273
G1 X116.27 Y180.087 E9.00706
G1 X114.053 Y180.252 E9.081
G1 X113.102 Y180.306 E9.11269
G1 X112.042 Y180.337 E9.14796
G1 X109.861 Y180.367 E9.2205
G1 X108.847 Y180.364 E9.25423
G1 X107.873 Y180.334 E9.28664
G1 X105.168 Y180.206 E9.37671
G1 X103.699 Y180.083 E9.42574
G1 X101.374 Y179.836 E9.50351
G1 X100.403 Y179.713 E9.53606
G1 X99.449 Y179.569 E9.56815
G1 X97.319 Y179.213 E9.63998
G1 X96.328 Y179.029 E9.6735
G1 X95.291 Y178.81 E9.70875
G1 X92.69 Y178.208 E9.79755
G1 X91.22 Y177.81 E9.8482
G1 X89.076 Y177.182 E9.92251
G1 X88.166 Y176.895 E9.95424
G1 X87.195 Y176.562 E9.98838
G1 X85.174 Y175.837 E10.0598
G1 X84.216 Y175.474 E10.09387
G1 X83.261 Y175.081 E10.12822
G1 X80.816 Y174.03 E10.21673
G1 X80.409 Y173.845 E10.2316
G1 X79.524 Y173.42 E10.26426
G1 X77.535 Y172.423 E10.33826
G1 X76.582 Y171.925 E10.37402
G1 X75.723 Y171.445 E10.40675
G1 X73.741 Y170.299 E10.4829
G1 X72.939 Y169.815 E10.51405
G1 X72.094 Y169.273 E10.54744
G1 X69.833 Y167.774 E10.63767
G1 X69.466 Y167.519 E10.65253
G1 X68.715 Y166.973 E10.68342
G1 X66.79 Y165.529 E10.76345
G1 X66.061 Y164.958 E10.79425
G1 X65.444 Y164.453 E10.82077
G1 X63.708 Y162.986 E10.89637
G1 X62.91 Y162.284 E10.93172
G1 X62.052 Y161.487 E10.97067
G1 X60.627 Y160.124 E11.03625
G1 X59.791 Y159.296 E11.07539
G1 X59.111 Y158.584 E11.10813
G1 X57.708 Y157.076 E11.17664
G1 X56.993 Y156.277 E11.2123
G1 X56.267 Y155.416 E11.24976
G1 X54.987 Y153.856 E11.31688
G1 X54.41 Y153.131 E11.34769
G1 X53.72 Y152.219 E11.38573
G1 X52.383 Y150.378 E11.46141
G1 X51.84 Y149.602 E11.49291
G1 X51.258 Y148.721 E11.52803
G1 X50.128 Y146.954 E11.59779
G1 X49.572 Y146.047 E11.63317
G1 X49.099 Y145.228 E11.66463
G1 X47.915 Y143.102 E11.74556
G1 X47.488 Y142.298 E11.77584
G1 X47.014 Y141.345 E11.81124
G1 X46.169 Y139.591 E11.876
G1 X45.808 Y138.814 E11.9045
G1 X45.291 Y137.605 E11.94823
G1 X44.444 Y135.535 E12.02262
G1 X44.078 Y134.594 E12.0562
G1 X43.725 Y133.605 E12.09113
G1 X42.873 Y131.079 E12.17979
G1 X42.475 Y129.749 E12.22597
G1 X41.899 Y127.654 E12.29823
G1 X41.617 Y126.558 E12.33587
G1 X41.412 Y125.653 E12.36674
G1 X40.846 Y122.975 E12.45777
G1 X40.761 Y122.526 E12.47297
G1 X40.587 Y121.476 E12.50837
G1 X40.254 Y119.244 E12.58343
G1 X40.163 Y118.58 E12.60572
G1 X40.023 Y117.264 E12.64974
G1 X39.827 Y115.073 E12.7229
G1 X39.758 Y114.115 E12.75485
G1 X39.714 Y113.1 E12.78864
G1 X39.653 Y111.003 E12.85842
G1 X39.64 Y109.875 E12.89594
G1 X39.654 Y108.953 E12.92661
G1 X39.718 Y106.756 E12.99971
G1 X39.768 Y105.731 E13.03384
G1 X39.83 Y104.897 E13.06166
G1 X40.048 Y102.451 E13.14333
G1 X40.149 Y101.542 E13.17375
G1 X40.294 Y100.473 E13.20963
G1 X40.694 Y97.865 E13.29739
G1 X40.775 Y97.41 E13.31276
G1 X40.978 Y96.386 E13.34748
G1 X41.494 Y93.982 E13.42926
G1 X41.65 Y93.311 E13.45217
G1 X41.952 Y92.135 E13.49256
G1 X42.507 Y90.126 E13.56188
G1 X42.766 Y89.256 E13.59207
G1 X43.032 Y88.432 E13.62087
G1 X43.812 Y86.152 E13.70102
G1 X44.158 Y85.198 E13.73477
G1 X44.48 Y84.378 E13.76407
G1 X45.351 Y82.247 E13.84064
G1 X45.783 Y81.241 E13.87705
G1 X46.199 Y80.348 E13.90982
G1 X47.139 Y78.396 E13.98188
G1 X47.556 Y77.568 E14.01271
G1 X47.981 Y76.777 E14.04258
G1 X49.144 Y74.688 E14.1221
G1 X49.627 Y73.861 E14.15396
G1 X50.101 Y73.091 E14.18403
G1 X51.404 Y71.054 E14.26446
G1 X51.924 Y70.276 E14.29558
G1 X52.435 Y69.553 E14.32503
G1 X53.795 Y67.683 E14.40193
G1 X54.436 Y66.834 E14.43732
G1 X54.88 Y66.276 E14.46103
G1 X56.729 Y64.031 E14.55777
G1 X57.03 Y63.681 E14.57312
G1 X57.808 Y62.819 E14.61174
G1 X59.253 Y61.262 E14.68239
G1 X59.732 Y60.764 E14.70538
M204 S2000
G0 F7500 X60.013 Y61.048
M204 S500
G1 F1500 X60.944 Y60.126 E14.74896
G1 X62.512 Y58.626 E14.82113
G1 X63.249 Y57.948 E14.85444
G1 X64.052 Y57.248 E14.88987
G1 X65.606 Y55.932 E14.9576
G1 X66.481 Y55.218 E14.99516
G1 X67.188 Y54.671 E15.02489
G1 X68.92 Y53.371 E15.09692
G1 X69.768 Y52.759 E15.1317
G1 X70.676 Y52.141 E15.16823
G1 X72.377 Y51.019 E15.23601
G1 X73.308 Y50.427 E15.2727
G1 X74.125 Y49.94 E15.30434
G1 X76.121 Y48.787 E15.381
G1 X76.895 Y48.36 E15.41041
G1 X77.822 Y47.879 E15.44514
G1 X79.656 Y46.96 E15.51337
G1 X80.64 Y46.49 E15.54964
G1 X81.676 Y46.029 E15.58735
G1 X83.66 Y45.184 E15.65908
G1 X84.556 Y44.821 E15.69123
G1 X85.453 Y44.486 E15.72308
G1 X87.386 Y43.793 E15.79138
G1 X88.464 Y43.428 E15.82923
G1 X89.271 Y43.178 E15.85733
G1 X91.578 Y42.502 E15.93729
G1 X92.475 Y42.259 E15.9682
G1 X93.504 Y42.01 E16.00341
G1 X95.643 Y41.523 E16.07637
G1 X96.532 Y41.34 E16.10656
G1 X97.596 Y41.145 E16.14254
G1 X99.772 Y40.787 E16.21589
G1 X100.818 Y40.634 E16.25105
G1 X101.791 Y40.518 E16.28364
G1 X103.766 Y40.309 E16.3497
G1 X104.802 Y40.22 E16.38428
G1 X105.933 Y40.152 E16.42196
G1 X108.115 Y40.057 E16.49461
G1 X109.067 Y40.034 E16.52628
G1 X109.891 Y40.033 E16.55369
G1 X112.12 Y40.064 E16.62783
G1 X113.222 Y40.101 E16.6645
G1 X114.255 Y40.163 E16.69892
G1 X116.487 Y40.332 E16.77337
G1 X117.362 Y40.415 E16.80261
G1 X118.281 Y40.525 E16.83339
G1 X120.673 Y40.851 E16.91368
G1 X121.603 Y40.995 E16.94498
G1 X122.393 Y41.138 E16.97169
G1 X125.194 Y41.696 E17.06668
G1 X125.6 Y41.786 E17.08051
G1 X126.69 Y42.051 E17.11782
G1 X128.635 Y42.557 E17.18466
G1 X129.673 Y42.846 E17.2205
G1 X130.761 Y43.182 E17.25837
G1 X132.751 Y43.83 E17.32798
G1 X133.704 Y44.16 E17.36153
G1 X134.652 Y44.516 E17.39521
G1 X136.575 Y45.27 E17.46391
G1 X137.575 Y45.684 E17.49991
G1 X138.424 Y46.062 E17.53082
G1 X140.479 Y47.013 E17.60613
G1 X141.403 Y47.463 E17.64031
G1 X142.312 Y47.935 E17.67438
G1 X144.139 Y48.919 E17.7434
G1 X145.083 Y49.449 E17.77941
G1 X145.92 Y49.951 E17.81187
G1 X148.25 Y51.4 E17.90313
G1 X148.613 Y51.637 E17.91755
G1 X149.481 Y52.229 E17.95249
G1 X151.232 Y53.463 E18.02374
G1 X152.073 Y54.078 E18.05839
G1 X152.861 Y54.687 E18.09152
G1 X154.594 Y56.071 E18.16528
G1 X155.285 Y56.643 E18.19512
G1 X155.945 Y57.219 E18.22425
G1 X157.704 Y58.803 E18.30298
G1 X158.419 Y59.471 E18.33553
G1 X159.159 Y60.201 E18.3701
G1 X160.706 Y61.772 E18.44343
G1 X161.346 Y62.446 E18.47435
G1 X162.048 Y63.226 E18.50925
G1 X163.499 Y64.888 E18.58263
G1 X164.117 Y65.623 E18.61457
G1 X164.755 Y66.425 E18.64865
G1 X166.076 Y68.134 E18.7205
G1 X166.7 Y68.975 E18.75533
G1 X167.235 Y69.737 E18.78629
G1 X168.511 Y71.607 E18.86159
G1 X169.003 Y72.361 E18.89154
G1 X169.568 Y73.274 E18.92725
G1 X170.712 Y75.192 E19.00153
G1 X171.157 Y75.974 E19.03145
G1 X171.657 Y76.905 E19.0666
G1 X172.592 Y78.706 E19.13409
G1 X172.974 Y79.47 E19.1625
G1 X173.444 Y80.471 E19.19928
G1 X174.415 Y82.65 E19.27863
G1 X174.776 Y83.505 E19.3095
G1 X175.165 Y84.494 E19.34484
G1 X175.887 Y86.42 E19.41325
G1 X176.264 Y87.484 E19.4508
G1 X176.522 Y88.277 E19.47854
G1 X177.172 Y90.379 E19.55171
G1 X177.487 Y91.464 E19.58929
G1 X177.699 Y92.279 E19.6173
G1 X178.266 Y94.591 E19.69648
G1 X178.467 Y95.488 E19.72705
G1 X178.682 Y96.571 E19.76377
G1 X179.042 Y98.566 E19.8312
G1 X179.215 Y99.639 E19.86735
G1 X179.352 Y100.656 E19.90148
G1 X179.599 Y102.722 E19.97069
G1 X179.712 Y103.824 E20.00753
G1 X179.787 Y104.818 E20.04068
G1 X179.911 Y106.866 E20.10893
G1 X179.954 Y107.904 E20.14348
G1 X179.97 Y109.081 E20.18263
G1 X179.964 Y111.459 E20.26172
G1 X179.944 Y112.43 E20.29403
G1 X179.898 Y113.406 E20.32652
G1 X179.775 Y115.384 E20.39244
G1 X179.692 Y116.412 E20.42674
G1 X179.612 Y117.166 E20.45196
G1 X179.322 Y119.589 E20.53313
G1 X179.194 Y120.513 E20.56415
G1 X179.056 Y121.343 E20.59214
G1 X178.536 Y124.174 E20.68787
G1 X178.452 Y124.585 E20.70182
G1 X178.201 Y125.683 E20.73929
G1 X177.685 Y127.782 E20.81118
G1 X177.436 Y128.721 E20.84349
G1 X177.21 Y129.494 E20.87027
G1 X176.492 Y131.823 E20.95133
G1 X176.21 Y132.675 E20.98118
G1 X175.868 Y133.629 E21.01489
G1 X175.136 Y135.58 E21.0842
G1 X174.731 Y136.603 E21.12079
G1 X174.403 Y137.375 E21.14869
G1 X173.41 Y139.605 E21.22988
G1 X173.044 Y140.387 E21.2586
G1 X172.547 Y141.381 E21.29556
G1 X171.567 Y143.268 E21.36628
G1 X171.098 Y144.131 E21.39895
G1 X170.555 Y145.073 E21.43512
G1 X169.541 Y146.772 E21.50092
G1 X168.936 Y147.745 E21.53903
G1 X168.461 Y148.466 E21.56775
G1 X167.118 Y150.436 E21.64705
G1 X166.587 Y151.183 E21.67753
G1 X165.971 Y152.003 E21.71164
G1 X164.646 Y153.716 E21.78367
G1 X164.008 Y154.509 E21.81752
G1 X163.349 Y155.284 E21.85136
G1 X161.972 Y156.861 E21.92099
G1 X161.293 Y157.61 E21.95462
G1 X160.63 Y158.306 E21.98659
G1 X158.974 Y159.984 E22.065
G1 X158.264 Y160.677 E22.098
G1 X157.643 Y161.253 E22.12617
G1 X155.897 Y162.825 E22.20431
G1 X155.188 Y163.437 E22.23546
G1 X154.502 Y164.001 E22.265
G1 X152.644 Y165.48 E22.34399
G1 X151.829 Y166.104 E22.37813
G1 X151.039 Y166.676 E22.41057
G1 X149.294 Y167.903 E22.48152
G1 X148.761 Y168.265 E22.50295
G1 X147.624 Y168.996 E22.54791
G1 X145.862 Y170.085 E22.6168
G1 X144.898 Y170.657 E22.65408
G1 X144.23 Y171.03 E22.67953
G1 X142.105 Y172.176 E22.75983
G1 X141.282 Y172.598 E22.79059
G1 X140.298 Y173.072 E22.82692
G1 X138.298 Y173.997 E22.90021
G1 X137.438 Y174.375 E22.93145
G1 X136.517 Y174.751 E22.96454
G1 X134.568 Y175.517 E23.03419
G1 X133.534 Y175.902 E23.07089
G1 X132.585 Y176.224 E23.10422
G1 X130.489 Y176.906 E23.17753
G1 X129.584 Y177.18 E23.20898
G1 X128.543 Y177.466 E23.24489
G1 X126.504 Y177.995 E23.31495
G1 X125.475 Y178.242 E23.35015
G1 X124.583 Y178.433 E23.38049
G1 X122.295 Y178.88 E23.45803
G1 X121.363 Y179.045 E23.48951
G1 X120.417 Y179.186 E23.52132
G1 X118.332 Y179.47 E23.5913
G1 X117.262 Y179.596 E23.62714
G1 X116.24 Y179.688 E23.66127
G1 X114.031 Y179.853 E23.73494
G1 X113.09 Y179.906 E23.76629
G1 X112.036 Y179.937 E23.80136
